; generated by Slic3r 1.3.0 on 2023-02-03 at 19:58:35

; external perimeters extrusion width = 0.55mm (7.28mm^3/s)
; perimeters extrusion width = 0.70mm (11.44mm^3/s)
; infill extrusion width = 0.63mm (13.45mm^3/s)
; solid infill extrusion width = 0.70mm (3.81mm^3/s)
; top infill extrusion width = 0.70mm (2.86mm^3/s)

M107
M104 S200 ; set temperature
G28 ; home all axes
G1 Z5 F5000 ; lift nozzle

; Filament gcode

M109 S200 ; set temperature and wait for it to be reached
G21 ; set units to millimeters
G90 ; use absolute coordinates
M82 ; use absolute distances for extrusion
G92 E0
G1 Z0.350 F7800.000
G1 E-2.00000 F2400.00000
G92 E0
G1 X77.854 Y87.277 F7800.000
G1 E2.00000 F2400.00000
G1 F1800
G1 X79.604 Y85.812 E2.06340
G1 X82.875 Y84.939 E2.15744
G1 X117.125 Y84.939 E3.10883
G1 X119.372 Y85.336 E3.17222
G1 X121.348 Y86.479 E3.23562
G1 X122.813 Y88.229 E3.29902
G1 X123.686 Y91.500 E3.39305
G1 X123.686 Y108.500 E3.86528
G1 X123.289 Y110.747 E3.92867
G1 X122.146 Y112.723 E3.99207
G1 X120.396 Y114.188 E4.05547
G1 X117.125 Y115.061 E4.14951
G1 X82.875 Y115.061 E5.10090
G1 X80.628 Y114.664 E5.16429
G1 X78.652 Y113.521 E5.22769
G1 X77.187 Y111.771 E5.29109
G1 X76.314 Y108.500 E5.38513
G1 X76.314 Y91.500 E5.85735
G1 X76.711 Y89.253 E5.92074
G1 X77.816 Y87.342 E5.98206
G1 E3.98206 F2400.00000
G92 E0
G1 X115.771 Y107.146 F7800.000
G1 E2.00000 F2400.00000
G1 F1800
G1 X84.229 Y107.146 E2.87617
G1 X84.229 Y92.854 E3.27317
G1 X115.771 Y92.854 E4.14934
G1 X115.771 Y107.071 E4.54426
G1 X116.332 Y107.707 F7800.000
G1 F1800
G1 X83.668 Y107.707 E5.45160
G1 X83.668 Y92.293 E5.87977
G1 X116.332 Y92.293 E6.78711
G1 X116.332 Y107.632 E7.21319
G1 X116.850 Y108.225 F7800.000
G1 F1800
G1 X83.150 Y108.225 E8.00562
G1 X83.150 Y91.775 E8.39242
G1 X116.850 Y91.775 E9.18485
G1 X116.850 Y108.150 E9.56989
G1 X116.356 Y108.150 F7800.000
G1 E7.56989 F2400.00000
G92 E0
G1 X114.992 Y106.803 F7800.000
G1 E2.00000 F2400.00000
G1 F1800
G1 X115.428 Y106.367 E2.01745
G1 X115.428 Y105.560 E2.04026
G1 X114.185 Y106.803 E2.08997
G1 X113.377 Y106.803 E2.11279
G1 X115.428 Y104.752 E2.19476
G1 X115.428 Y103.945 E2.21758
G1 X112.570 Y106.803 E2.33181
G1 X111.763 Y106.803 E2.35463
G1 X115.428 Y103.138 E2.50113
G1 X115.428 Y102.331 E2.52395
G1 X110.956 Y106.803 E2.70271
G1 X110.148 Y106.803 E2.72553
G1 X115.428 Y101.523 E2.93656
G1 X115.428 Y100.716 E2.95937
G1 X109.341 Y106.803 E3.20267
G1 X108.534 Y106.803 E3.22548
G1 X115.428 Y99.909 E3.50105
G1 X115.428 Y99.102 E3.52386
G1 X107.727 Y106.803 E3.83168
G1 X106.920 Y106.803 E3.85450
G1 X115.428 Y98.295 E4.19459
G1 X115.428 Y97.487 E4.21740
G1 X106.112 Y106.803 E4.58975
G1 X105.305 Y106.803 E4.61257
G1 X115.428 Y96.680 E5.01719
G1 X115.428 Y95.873 E5.04000
G1 X104.498 Y106.803 E5.47688
G1 X103.691 Y106.803 E5.49970
G1 X115.428 Y95.066 E5.96884
G1 X115.428 Y94.258 E5.99166
G1 X102.883 Y106.803 E6.49307
G1 X102.076 Y106.803 E6.51588
G1 X115.428 Y93.451 E7.04955
G1 X115.428 Y93.197 E7.05675
G1 X114.876 Y93.197 E7.07237
G1 X101.269 Y106.803 E7.61621
G1 X100.462 Y106.803 E7.63903
G1 X114.068 Y93.197 E8.18287
G1 X113.261 Y93.197 E8.20569
G1 X99.655 Y106.803 E8.74953
G1 X98.847 Y106.803 E8.77235
G1 X112.454 Y93.197 E9.31619
G1 X111.647 Y93.197 E9.33901
G1 X98.040 Y106.803 E9.88285
G1 X97.233 Y106.803 E9.90567
G1 X110.839 Y93.197 E10.44951
G1 X110.032 Y93.197 E10.47233
G1 X96.426 Y106.803 E11.01617
G1 X95.618 Y106.803 E11.03899
G1 X109.225 Y93.197 E11.58283
G1 X108.418 Y93.197 E11.60565
G1 X94.811 Y106.803 E12.14949
G1 X94.004 Y106.803 E12.17231
G1 X107.611 Y93.197 E12.71615
G1 X106.803 Y93.197 E12.73897
G1 X93.197 Y106.803 E13.28281
G1 X92.390 Y106.803 E13.30562
G1 X105.996 Y93.197 E13.84947
G1 X105.189 Y93.197 E13.87228
G1 X91.582 Y106.803 E14.41613
G1 X90.775 Y106.803 E14.43894
G1 X104.382 Y93.197 E14.98279
G1 X103.574 Y93.197 E15.00560
G1 X89.968 Y106.803 E15.54945
G1 X89.161 Y106.803 E15.57226
G1 X102.767 Y93.197 E16.11611
G1 X101.960 Y93.197 E16.13892
G1 X88.353 Y106.803 E16.68277
G1 X87.546 Y106.803 E16.70558
G1 X101.153 Y93.197 E17.24943
G1 X100.346 Y93.197 E17.27224
G1 X86.739 Y106.803 E17.81609
G1 X85.932 Y106.803 E17.83890
G1 X99.538 Y93.197 E18.38275
G1 X98.731 Y93.197 E18.40556
G1 X85.125 Y106.803 E18.94941
G1 X84.572 Y106.803 E18.96503
G1 X84.572 Y106.549 E18.97222
G1 X97.924 Y93.197 E19.50590
G1 X97.117 Y93.197 E19.52871
G1 X84.572 Y105.742 E20.03012
G1 X84.572 Y104.934 E20.05294
G1 X96.309 Y93.197 E20.52209
G1 X95.502 Y93.197 E20.54490
G1 X84.572 Y104.127 E20.98178
G1 X84.572 Y103.320 E21.00460
G1 X94.695 Y93.197 E21.40922
G1 X93.888 Y93.197 E21.43203
G1 X84.572 Y102.513 E21.80439
G1 X84.572 Y101.706 E21.82720
G1 X93.081 Y93.197 E22.16729
G1 X92.273 Y93.197 E22.19011
G1 X84.572 Y100.898 E22.49794
G1 X84.572 Y100.091 E22.52075
G1 X91.466 Y93.197 E22.79631
G1 X90.659 Y93.197 E22.81913
G1 X84.572 Y99.284 E23.06242
G1 X84.572 Y98.477 E23.08524
G1 X89.852 Y93.197 E23.29627
G1 X89.044 Y93.197 E23.31909
G1 X84.572 Y97.669 E23.49786
G1 X84.572 Y96.862 E23.52067
G1 X88.237 Y93.197 E23.66718
G1 X87.430 Y93.197 E23.68999
G1 X84.572 Y96.055 E23.80423
G1 X84.572 Y95.248 E23.82705
G1 X86.623 Y93.197 E23.90902
G1 X85.816 Y93.197 E23.93184
G1 X84.572 Y94.441 E23.98155
G1 X84.572 Y93.633 E24.00437
G1 X85.008 Y93.197 E24.02181
G1 Z0.650 F7800.000
G1 E22.02181 F2400.00000
G92 E0
G1 X115.654 Y107.029 F7800.000
G1 E2.00000 F2400.00000
G1 F3600
G1 X84.346 Y107.029 E2.84457
G1 X84.346 Y92.971 E3.22379
G1 X115.654 Y92.971 E4.06836
G1 X115.654 Y106.954 E4.44556
G1 X116.289 Y107.664 F7800.000
G1 F3600
G1 X83.711 Y107.664 E5.32442
G1 X83.711 Y92.336 E5.73794
G1 X116.289 Y92.336 E6.61680
G1 X116.289 Y107.589 E7.02829
G1 X116.850 Y108.225 F7800.000
G1 F3000
G1 X83.150 Y108.225 E7.72286
G1 X83.150 Y91.775 E8.06190
G1 X116.850 Y91.775 E8.75647
G1 X116.850 Y108.150 E9.09396
G1 X116.356 Y108.150 F7800.000
G1 E7.09396 F2400.00000
G92 E0
G1 X115.265 Y93.854 F7800.000
G1 E2.00000 F2400.00000
G1 F1200
G1 X114.771 Y93.360 E2.01912
G1 X113.860 Y93.360 E2.04404
G1 X115.265 Y94.765 E2.09839
G1 X115.265 Y95.676 E2.12330
G1 X112.949 Y93.360 E2.21289
G1 X112.037 Y93.360 E2.23780
G1 X115.265 Y96.588 E2.36262
G1 X115.265 Y97.499 E2.38753
G1 X111.126 Y93.360 E2.54758
G1 X110.215 Y93.360 E2.57250
G1 X115.265 Y98.410 E2.76778
G1 X115.265 Y99.321 E2.79269
G1 X109.304 Y93.360 E3.02321
G1 X108.393 Y93.360 E3.04812
G1 X115.265 Y100.232 E3.31386
G1 X115.265 Y101.143 E3.33878
G1 X107.482 Y93.360 E3.63975
G1 X106.571 Y93.360 E3.66467
G1 X115.265 Y102.054 E4.00087
G1 X115.265 Y102.965 E4.02579
G1 X105.660 Y93.360 E4.39723
G1 X104.749 Y93.360 E4.42214
G1 X115.265 Y103.876 E4.82881
G1 X115.265 Y104.788 E4.85373
G1 X103.837 Y93.360 E5.29563
G1 X102.926 Y93.360 E5.32054
G1 X115.265 Y105.699 E5.79768
G1 X115.265 Y106.610 E5.82259
G1 X102.015 Y93.360 E6.33496
G1 X101.104 Y93.360 E6.35987
G1 X114.385 Y106.640 E6.87342
G1 X113.474 Y106.640 E6.89834
G1 X100.193 Y93.360 E7.41189
G1 X99.282 Y93.360 E7.43680
G1 X112.563 Y106.640 E7.95035
G1 X111.651 Y106.640 E7.97526
G1 X98.371 Y93.360 E8.48881
G1 X97.460 Y93.360 E8.51373
G1 X110.740 Y106.640 E9.02728
G1 X109.829 Y106.640 E9.05219
G1 X96.549 Y93.360 E9.56574
G1 X95.637 Y93.360 E9.59065
G1 X108.918 Y106.640 E10.10420
G1 X108.007 Y106.640 E10.12912
G1 X94.726 Y93.360 E10.64267
G1 X93.815 Y93.360 E10.66758
G1 X107.096 Y106.640 E11.18113
G1 X106.185 Y106.640 E11.20604
G1 X92.904 Y93.360 E11.71959
G1 X91.993 Y93.360 E11.74451
G1 X105.274 Y106.640 E12.25806
G1 X104.363 Y106.640 E12.28297
G1 X91.082 Y93.360 E12.79652
G1 X90.171 Y93.360 E12.82143
G1 X103.451 Y106.640 E13.33498
G1 X102.540 Y106.640 E13.35990
G1 X89.260 Y93.360 E13.87345
G1 X88.349 Y93.360 E13.89836
G1 X101.629 Y106.640 E14.41191
G1 X100.718 Y106.640 E14.43682
G1 X87.437 Y93.360 E14.95037
G1 X86.526 Y93.360 E14.97529
G1 X99.807 Y106.640 E15.48884
G1 X98.896 Y106.640 E15.51375
G1 X85.615 Y93.360 E16.02730
G1 X84.735 Y93.360 E16.05138
G1 X84.735 Y93.390 E16.05221
G1 X97.985 Y106.640 E16.56458
G1 X97.074 Y106.640 E16.58949
G1 X84.735 Y94.301 E17.06663
G1 X84.735 Y95.212 E17.09154
G1 X96.163 Y106.640 E17.53345
G1 X95.251 Y106.640 E17.55836
G1 X84.735 Y96.124 E17.96503
G1 X84.735 Y97.035 E17.98995
G1 X94.340 Y106.640 E18.36139
G1 X93.429 Y106.640 E18.38630
G1 X84.735 Y97.946 E18.72251
G1 X84.735 Y98.857 E18.74742
G1 X92.518 Y106.640 E19.04840
G1 X91.607 Y106.640 E19.07331
G1 X84.735 Y99.768 E19.33906
G1 X84.735 Y100.679 E19.36397
G1 X90.696 Y106.640 E19.59448
G1 X89.785 Y106.640 E19.61940
G1 X84.735 Y101.590 E19.81468
G1 X84.735 Y102.501 E19.83959
G1 X88.874 Y106.640 E19.99964
G1 X87.963 Y106.640 E20.02456
G1 X84.735 Y103.412 E20.14937
G1 X84.735 Y104.324 E20.17429
G1 X87.051 Y106.640 E20.26387
G1 X86.140 Y106.640 E20.28879
G1 X84.735 Y105.235 E20.34314
G1 X84.735 Y106.146 E20.36805
G1 X85.229 Y106.640 E20.38717
G1 Z0.950 F7800.000
G1 E18.38717 F2400.00000
G92 E0
G1 X115.654 Y107.029 F7800.000
G1 E2.00000 F2400.00000
G1 F3600
G1 X84.346 Y107.029 E2.84457
G1 X84.346 Y92.971 E3.22379
G1 X115.654 Y92.971 E4.06836
G1 X115.654 Y106.954 E4.44556
G1 X116.289 Y107.664 F7800.000
G1 F3600
G1 X83.711 Y107.664 E5.32442
G1 X83.711 Y92.336 E5.73794
G1 X116.289 Y92.336 E6.61680
G1 X116.289 Y107.589 E7.02829
G1 X116.850 Y108.225 F7800.000
G1 F3000
G1 X83.150 Y108.225 E7.72286
G1 X83.150 Y91.775 E8.06190
G1 X116.850 Y91.775 E8.75647
G1 X116.850 Y108.150 E9.09396
G1 X116.356 Y108.150 F7800.000
G1 E7.09396 F2400.00000
G92 E0
G1 X114.771 Y106.640 F7800.000
G1 E2.00000 F2400.00000
G1 F1200
G1 X115.265 Y106.146 E2.01912
G1 X115.265 Y105.235 E2.04404
G1 X113.860 Y106.640 E2.09839
G1 X112.949 Y106.640 E2.12330
G1 X115.265 Y104.324 E2.21289
G1 X115.265 Y103.412 E2.23780
G1 X112.037 Y106.640 E2.36262
G1 X111.126 Y106.640 E2.38753
G1 X115.265 Y102.501 E2.54758
G1 X115.265 Y101.590 E2.57250
G1 X110.215 Y106.640 E2.76778
G1 X109.304 Y106.640 E2.79269
G1 X115.265 Y100.679 E3.02321
G1 X115.265 Y99.768 E3.04812
G1 X108.393 Y106.640 E3.31386
G1 X107.482 Y106.640 E3.33878
G1 X115.265 Y98.857 E3.63975
G1 X115.265 Y97.946 E3.66467
G1 X106.571 Y106.640 E4.00088
G1 X105.660 Y106.640 E4.02579
G1 X115.265 Y97.035 E4.39723
G1 X115.265 Y96.124 E4.42214
G1 X104.749 Y106.640 E4.82881
G1 X103.837 Y106.640 E4.85373
G1 X115.265 Y95.212 E5.29563
G1 X115.265 Y94.301 E5.32054
G1 X102.926 Y106.640 E5.79768
G1 X102.015 Y106.640 E5.82259
G1 X115.265 Y93.390 E6.33496
G1 X115.265 Y93.360 E6.33580
G1 X114.385 Y93.360 E6.35987
G1 X101.104 Y106.640 E6.87342
G1 X100.193 Y106.640 E6.89834
G1 X113.474 Y93.360 E7.41189
G1 X112.563 Y93.360 E7.43680
G1 X99.282 Y106.640 E7.95035
G1 X98.371 Y106.640 E7.97526
G1 X111.651 Y93.360 E8.48881
G1 X110.740 Y93.360 E8.51373
G1 X97.460 Y106.640 E9.02728
G1 X96.549 Y106.640 E9.05219
G1 X109.829 Y93.360 E9.56574
G1 X108.918 Y93.360 E9.59065
G1 X95.637 Y106.640 E10.10420
G1 X94.726 Y106.640 E10.12912
G1 X108.007 Y93.360 E10.64267
G1 X107.096 Y93.360 E10.66758
G1 X93.815 Y106.640 E11.18113
G1 X92.904 Y106.640 E11.20604
G1 X106.185 Y93.360 E11.71959
G1 X105.274 Y93.360 E11.74451
G1 X91.993 Y106.640 E12.25806
G1 X91.082 Y106.640 E12.28297
G1 X104.363 Y93.360 E12.79652
G1 X103.451 Y93.360 E12.82143
G1 X90.171 Y106.640 E13.33499
G1 X89.260 Y106.640 E13.35990
G1 X102.540 Y93.360 E13.87345
G1 X101.629 Y93.360 E13.89836
G1 X88.349 Y106.640 E14.41191
G1 X87.437 Y106.640 E14.43682
G1 X100.718 Y93.360 E14.95038
G1 X99.807 Y93.360 E14.97529
G1 X86.526 Y106.640 E15.48884
G1 X85.615 Y106.640 E15.51375
G1 X98.896 Y93.360 E16.02730
G1 X97.985 Y93.360 E16.05221
G1 X84.735 Y106.610 E16.56458
G1 X84.735 Y105.699 E16.58950
G1 X97.074 Y93.360 E17.06663
G1 X96.163 Y93.360 E17.09154
G1 X84.735 Y104.788 E17.53345
G1 X84.735 Y103.876 E17.55836
G1 X95.251 Y93.360 E17.96503
G1 X94.340 Y93.360 E17.98995
G1 X84.735 Y102.965 E18.36139
G1 X84.735 Y102.054 E18.38630
G1 X93.429 Y93.360 E18.72251
G1 X92.518 Y93.360 E18.74742
G1 X84.735 Y101.143 E19.04840
G1 X84.735 Y100.232 E19.07331
G1 X91.607 Y93.360 E19.33906
G1 X90.696 Y93.360 E19.36397
G1 X84.735 Y99.321 E19.59448
G1 X84.735 Y98.410 E19.61940
G1 X89.785 Y93.360 E19.81468
G1 X88.874 Y93.360 E19.83959
G1 X84.735 Y97.499 E19.99964
G1 X84.735 Y96.588 E20.02456
G1 X87.963 Y93.360 E20.14937
G1 X87.051 Y93.360 E20.17429
G1 X84.735 Y95.676 E20.26387
G1 X84.735 Y94.765 E20.28879
G1 X86.140 Y93.360 E20.34314
G1 X85.229 Y93.360 E20.36805
G1 X84.735 Y93.854 E20.38717
M106 S247.35
G1 Z1.250 F7800.000
G1 E18.38717 F2400.00000
G92 E0
G1 X115.654 Y107.029 F7800.000
G1 E2.00000 F2400.00000
G1 F3600
G1 X84.346 Y107.029 E2.84457
G1 X84.346 Y92.971 E3.22379
G1 X115.654 Y92.971 E4.06836
G1 X115.654 Y106.954 E4.44556
G1 X116.289 Y107.664 F7800.000
G1 F3600
G1 X83.711 Y107.664 E5.32442
G1 X83.711 Y92.336 E5.73794
G1 X116.289 Y92.336 E6.61680
G1 X116.289 Y107.589 E7.02829
G1 X116.850 Y108.225 F7800.000
G1 F3000
G1 X83.150 Y108.225 E7.72286
G1 X83.150 Y91.775 E8.06190
G1 X116.850 Y91.775 E8.75647
G1 X116.850 Y108.150 E9.09396
G1 X116.356 Y108.150 F7800.000
G1 E7.09396 F2400.00000
G92 E0
G1 X115.288 Y103.396 F7800.000
G1 E2.00000 F2400.00000
G1 F4800
G1 X105.229 Y93.337 E2.33848
G1 X93.337 Y93.337 E2.62144
G1 X106.663 Y106.663 E3.06986
G1 X94.771 Y106.663 E3.35283
G1 X84.712 Y96.604 E3.69130
G1 E1.69130 F2400.00000
G92 E0
G1 X84.627 Y99.766 F7800.000
G1 E2.00000 F2400.00000
G1 F4800
G1 X108.072 Y93.484 E2.57752
G1 E0.57752 F2400.00000
G92 E0
G1 X110.514 Y93.252 F7800.000
G1 E2.00000 F2400.00000
G1 F4800
G1 X106.898 Y106.748 E2.33246
G1 E0.33246 F2400.00000
G92 E0
G1 X98.192 Y106.748 F7800.000
G1 E2.00000 F2400.00000
G1 F4800
G1 X101.808 Y93.252 E2.33246
G1 E0.33246 F2400.00000
G92 E0
G1 X93.102 Y93.252 F7800.000
G1 E2.00000 F2400.00000
G1 F4800
G1 X89.486 Y106.748 E2.33246
G1 E0.33246 F2400.00000
G92 E0
G1 X91.928 Y106.516 F7800.000
G1 E2.00000 F2400.00000
G1 F4800
G1 X115.373 Y100.234 E2.57752
M106 S214.2
G1 Z1.550 F7800.000
G1 E0.57752 F2400.00000
G92 E0
G1 X115.654 Y107.029 F7800.000
G1 E2.00000 F2400.00000
G1 F3600
G1 X84.346 Y107.029 E2.84457
G1 X84.346 Y92.971 E3.22379
G1 X115.654 Y92.971 E4.06836
G1 X115.654 Y106.954 E4.44556
G1 X116.289 Y107.664 F7800.000
G1 F3600
G1 X83.711 Y107.664 E5.32442
G1 X83.711 Y92.336 E5.73794
G1 X116.289 Y92.336 E6.61680
G1 X116.289 Y107.589 E7.02829
G1 X116.850 Y108.225 F7800.000
G1 F3000
G1 X83.150 Y108.225 E7.72286
G1 X83.150 Y91.775 E8.06190
G1 X116.850 Y91.775 E8.75647
G1 X116.850 Y108.150 E9.09396
G1 X116.356 Y108.150 F7800.000
G1 E7.09396 F2400.00000
G92 E0
G1 X114.830 Y106.667 F7800.000
G1 E2.00000 F2400.00000
M106 S255

G1 F3600
G1 X115.292 Y106.205 E2.01832
G1 X115.292 Y105.424 E2.04027
G1 X114.049 Y106.667 E2.08964
G1 X113.267 Y106.667 E2.11159
G1 X115.292 Y104.642 E2.19200
G1 X115.292 Y103.860 E2.21395
G1 X112.485 Y106.667 E2.32541
G1 X111.703 Y106.667 E2.34737
G1 X115.292 Y103.078 E2.48987
G1 X115.292 Y102.297 E2.51182
G1 X110.922 Y106.667 E2.68537
G1 X110.140 Y106.667 E2.70733
G1 X115.292 Y101.515 E2.91192
G1 X115.292 Y100.733 E2.93388
G1 X109.358 Y106.667 E3.16952
G1 X108.577 Y106.667 E3.19147
G1 X115.292 Y99.952 E3.45816
G1 X115.292 Y99.170 E3.48011
G1 X107.795 Y106.667 E3.77785
G1 X107.013 Y106.667 E3.79980
G1 X115.292 Y98.388 E4.12859
G1 X115.292 Y97.607 E4.15054
G1 X106.232 Y106.667 E4.51037
G1 X105.450 Y106.667 E4.53232
G1 X115.292 Y96.825 E4.92319
G1 X115.292 Y96.043 E4.94515
G1 X104.668 Y106.667 E5.36707
G1 X103.886 Y106.667 E5.38902
G1 X115.292 Y95.261 E5.84199
G1 X115.292 Y94.480 E5.86394
G1 X103.105 Y106.667 E6.34796
G1 X102.323 Y106.667 E6.36991
G1 X115.292 Y93.698 E6.88497
G1 X115.292 Y93.333 E6.89521
G1 X114.874 Y93.333 E6.90692
G1 X101.541 Y106.667 E7.43646
