; generated by Slic3r 1.3.0 on 2023-02-03 at 20:32:45

; external perimeters extrusion width = 0.55mm (7.28mm^3/s)
; perimeters extrusion width = 0.70mm (11.44mm^3/s)
; infill extrusion width = 0.63mm (13.45mm^3/s)
; solid infill extrusion width = 0.70mm (3.81mm^3/s)
; top infill extrusion width = 0.70mm (2.86mm^3/s)

M107
M104 S200 ; set temperature
G28 ; home all axes
G1 Z5 F5000 ; lift nozzle

; Filament gcode

M109 S200 ; set temperature and wait for it to be reached
G21 ; set units to millimeters
G90 ; use absolute coordinates
M82 ; use absolute distances for extrusion
G92 E0
G1 Z0.350 F7800.000
G1 E-2.00000 F2400.00000
G92 E0
G1 X51.854 Y97.687 F7800.000
G1 E2.00000 F2400.00000
G1 F1800
G1 X54.454 Y96.848 E2.07588
G1 X141.954 Y87.848 E4.51926
G1 X142.625 Y87.814 E4.53793
G1 X144.875 Y87.814 E4.60043
G1 X147.122 Y88.211 E4.66382
G1 X149.098 Y89.354 E4.72722
G1 X150.563 Y91.104 E4.79062
G1 X151.339 Y93.250 E4.85401
G1 X151.416 Y94.890 E4.89960
G1 X151.277 Y96.650 E4.94864
G1 X151.116 Y97.667 E4.97724
G1 X150.704 Y99.383 E5.02628
G1 X150.386 Y100.362 E5.05487
G1 X149.710 Y101.993 E5.10391
G1 X149.243 Y102.911 E5.13251
G1 X148.320 Y104.416 E5.18156
G1 X147.715 Y105.249 E5.21014
G1 X146.569 Y106.591 E5.25918
G1 X145.841 Y107.319 E5.28778
G1 X144.499 Y108.465 E5.33682
G1 X143.666 Y109.071 E5.36541
G1 X142.176 Y109.983 E5.41395
G1 X141.243 Y110.460 E5.44305
G1 X139.612 Y111.136 E5.49209
G1 X138.633 Y111.454 E5.52068
G1 X136.917 Y111.866 E5.56972
G1 X135.900 Y112.027 E5.59832
G1 X134.140 Y112.166 E5.64736
G1 X133.625 Y112.186 E5.66167
G1 X55.125 Y112.186 E7.84222
G1 X52.878 Y111.789 E7.90562
G1 X50.902 Y110.646 E7.96901
G1 X49.437 Y108.896 E8.03241
G1 X48.564 Y105.625 E8.12645
G1 X48.564 Y103.375 E8.18895
G1 X48.961 Y101.128 E8.25235
G1 X50.104 Y99.152 E8.31574
G1 X51.797 Y97.736 E8.37706
G1 E6.37706 F2400.00000
G92 E0
G1 X55.918 Y104.832 F7800.000
G1 E2.00000 F2400.00000
G1 F1800
G1 X55.918 Y104.168 E2.01845
G1 X133.656 Y104.168 E4.17784
G1 X135.157 Y104.050 E4.21967
G1 X136.652 Y103.691 E4.26237
G1 X138.072 Y103.103 E4.30506
G1 X139.383 Y102.300 E4.34776
G1 X140.552 Y101.301 E4.39047
G1 X141.558 Y100.120 E4.43357
G1 X142.353 Y98.822 E4.47585
G1 X142.941 Y97.402 E4.51854
G1 X143.300 Y95.907 E4.56124
G1 X143.358 Y95.168 E4.58184
G1 X144.017 Y95.168 E4.60015
G1 X143.952 Y95.993 E4.62314
G1 X143.568 Y97.606 E4.66921
G1 X142.940 Y99.121 E4.71476
G1 X142.083 Y100.520 E4.76033
G1 X141.018 Y101.768 E4.80590
G1 X139.770 Y102.833 E4.85147
G1 X138.371 Y103.690 E4.89704
G1 X136.856 Y104.318 E4.94261
G1 X135.260 Y104.701 E4.98818
G1 X133.594 Y104.832 E5.03462
G1 X55.993 Y104.832 E7.19020
G1 X55.400 Y105.350 F7800.000
G1 F1800
G1 X55.400 Y103.650 E7.23017
G1 X133.636 Y103.650 E9.06982
G1 X135.076 Y103.537 E9.10379
G1 X136.491 Y103.197 E9.13801
G1 X137.836 Y102.640 E9.17224
G1 X139.077 Y101.879 E9.20647
G1 X140.184 Y100.934 E9.24070
G1 X141.137 Y99.815 E9.27526
G1 X141.890 Y98.586 E9.30914
G1 X142.447 Y97.241 E9.34336
G1 X142.787 Y95.826 E9.37759
G1 X142.879 Y94.650 E9.40533
G1 X144.578 Y94.650 E9.44526
G1 X144.465 Y96.074 E9.47885
G1 X144.062 Y97.766 E9.51976
G1 X143.403 Y99.357 E9.56025
G1 X142.503 Y100.825 E9.60074
G1 X141.385 Y102.135 E9.64123
G1 X140.075 Y103.253 E9.68173
G1 X138.607 Y104.153 E9.72222
G1 X137.016 Y104.812 E9.76271
G1 X135.342 Y105.214 E9.80320
G1 X133.614 Y105.350 E9.84395
G1 X55.475 Y105.350 E11.68132
G1 X55.650 Y104.917 F7800.000
G1 Z0.650 F7800.000
G1 X55.961 Y104.789 F7800.000
G1 F3600
G1 X55.961 Y104.211 E11.69693
G1 X133.658 Y104.211 E13.79294
G1 X135.164 Y104.092 E13.83369
G1 X136.665 Y103.732 E13.87534
G1 X138.091 Y103.141 E13.91699
G1 X139.408 Y102.334 E13.95863
G1 X140.582 Y101.332 E14.00028
G1 X141.584 Y100.158 E14.04192
G1 X142.391 Y98.841 E14.08357
G1 X142.982 Y97.415 E14.12522
G1 X143.342 Y95.914 E14.16686
G1 X143.397 Y95.211 E14.18590
G1 X143.971 Y95.211 E14.20137
G1 X143.913 Y95.954 E14.22148
G1 X143.526 Y97.594 E14.26694
G1 X142.902 Y99.102 E14.31096
G1 X142.048 Y100.495 E14.35504
G1 X140.987 Y101.737 E14.39911
G1 X139.745 Y102.798 E14.44319
G1 X138.352 Y103.652 E14.48726
G1 X136.842 Y104.277 E14.53134
G1 X135.254 Y104.659 E14.57541
G1 X133.592 Y104.789 E14.62037
G1 X56.036 Y104.789 E16.71258
G1 X55.400 Y105.350 F7800.000
G1 F3000
G1 X55.400 Y103.650 E16.74762
G1 X133.636 Y103.650 E18.36008
G1 X135.076 Y103.537 E18.38986
G1 X136.491 Y103.197 E18.41986
G1 X137.836 Y102.640 E18.44986
G1 X139.077 Y101.879 E18.47986
G1 X140.184 Y100.934 E18.50986
G1 X141.129 Y99.827 E18.53986
G1 X141.890 Y98.586 E18.56985
G1 X142.447 Y97.241 E18.59985
G1 X142.787 Y95.826 E18.62985
G1 X142.879 Y94.650 E18.65417
G1 X144.578 Y94.650 E18.68917
G1 X144.468 Y96.041 E18.71792
G1 X144.062 Y97.767 E18.75447
G1 X143.403 Y99.357 E18.78995
G1 X142.503 Y100.825 E18.82544
G1 X141.385 Y102.135 E18.86093
G1 X140.075 Y103.253 E18.89642
G1 X138.607 Y104.153 E18.93192
G1 X137.016 Y104.812 E18.96741
G1 X135.342 Y105.214 E19.00290
G1 X133.614 Y105.350 E19.03861
G1 X55.475 Y105.350 E20.64909
G1 X55.650 Y104.917 F7800.000
G1 Z0.950 F7800.000
G1 X55.961 Y104.789 F7800.000
G1 F3600
G1 X55.961 Y104.211 E20.66470
G1 X133.658 Y104.211 E22.76070
G1 X135.164 Y104.092 E22.80146
G1 X136.665 Y103.732 E22.84311
G1 X138.091 Y103.141 E22.88475
G1 X139.408 Y102.334 E22.92640
G1 X140.584 Y101.330 E22.96813
G1 X141.621 Y100.099 E23.01154
G1 X142.391 Y98.841 E23.05132
G1 X142.982 Y97.415 E23.09296
G1 X143.342 Y95.914 E23.13461
G1 X143.397 Y95.211 E23.15364
G1 X143.971 Y95.211 E23.16912
G1 X143.915 Y95.924 E23.18842
G1 X143.526 Y97.595 E23.23471
G1 X142.902 Y99.102 E23.27870
G1 X142.048 Y100.495 E23.32278
G1 X140.987 Y101.737 E23.36685
G1 X139.745 Y102.798 E23.41092
G1 X138.352 Y103.652 E23.45500
G1 X136.842 Y104.277 E23.49907
G1 X135.254 Y104.659 E23.54315
G1 X133.592 Y104.789 E23.58811
G1 X56.036 Y104.789 E25.68032
G1 X55.400 Y105.350 F7800.000
G1 F3000
G1 X55.400 Y103.650 E25.71535
G1 X133.636 Y103.650 E27.32782
G1 X135.076 Y103.537 E27.35760
G1 X136.491 Y103.197 E27.38759
G1 X137.836 Y102.640 E27.41759
G1 X139.077 Y101.879 E27.44759
G1 X140.185 Y100.933 E27.47761
G1 X141.165 Y99.770 E27.50897
G1 X141.890 Y98.586 E27.53758
G1 X142.447 Y97.241 E27.56757
G1 X142.787 Y95.826 E27.59757
G1 X142.879 Y94.650 E27.62189
G1 X144.578 Y94.650 E27.65689
G1 X144.470 Y96.010 E27.68500
G1 X144.062 Y97.767 E27.72219
G1 X143.403 Y99.357 E27.75766
G1 X142.503 Y100.825 E27.79315
G1 X141.385 Y102.135 E27.82864
G1 X140.075 Y103.253 E27.86414
G1 X138.607 Y104.153 E27.89963
G1 X137.016 Y104.812 E27.93512
G1 X135.342 Y105.214 E27.97061
G1 X133.614 Y105.350 E28.00633
G1 X55.475 Y105.350 E29.61680
G1 X55.650 Y104.917 F7800.000
M106 S247.35
G1 Z1.250 F7800.000
G1 X55.961 Y104.789 F7800.000
G1 F3600
G1 X55.961 Y104.211 E29.63241
G1 X133.658 Y104.211 E31.72842
G1 X135.164 Y104.092 E31.76917
G1 X136.665 Y103.732 E31.81082
G1 X138.091 Y103.141 E31.85247
G1 X139.408 Y102.334 E31.89411
G1 X140.582 Y101.332 E31.93576
G1 X141.584 Y100.158 E31.97740
G1 X142.391 Y98.841 E32.01905
G1 X142.982 Y97.415 E32.06070
G1 X143.342 Y95.914 E32.10234
G1 X143.397 Y95.211 E32.12138
G1 X143.971 Y95.211 E32.13685
G1 X143.909 Y96.004 E32.15831
G1 X143.527 Y97.592 E32.20239
G1 X142.902 Y99.102 E32.24646
G1 X142.048 Y100.495 E32.29054
G1 X140.987 Y101.737 E32.33461
G1 X139.745 Y102.798 E32.37868
G1 X138.352 Y103.652 E32.42276
G1 X136.842 Y104.277 E32.46683
G1 X135.254 Y104.659 E32.51091
G1 X133.592 Y104.789 E32.55587
G1 X56.036 Y104.789 E34.64808
G1 X55.400 Y105.350 F7800.000
G1 F3000
G1 X55.400 Y103.650 E34.68311
G1 X133.636 Y103.650 E36.29558
G1 X135.076 Y103.537 E36.32536
G1 X136.491 Y103.197 E36.35536
G1 X137.836 Y102.640 E36.38535
G1 X139.077 Y101.879 E36.41535
G1 X140.184 Y100.934 E36.44535
G1 X141.129 Y99.827 E36.47535
G1 X141.890 Y98.586 E36.50535
G1 X142.447 Y97.241 E36.53535
G1 X142.787 Y95.826 E36.56535
G1 X142.879 Y94.650 E36.58966
G1 X144.578 Y94.650 E36.62467
G1 X144.464 Y96.092 E36.65447
G1 X144.062 Y97.766 E36.68997
G1 X143.403 Y99.357 E36.72546
G1 X142.503 Y100.825 E36.76095
G1 X141.385 Y102.135 E36.79644
G1 X140.075 Y103.253 E36.83193
G1 X138.607 Y104.153 E36.86742
G1 X137.016 Y104.812 E36.90292
G1 X135.342 Y105.214 E36.93841
G1 X133.614 Y105.350 E36.97412
G1 X55.475 Y105.350 E38.58460
G1 X55.650 Y104.917 F7800.000
G1 Z1.550 F7800.000
G1 X55.961 Y104.789 F7800.000
G1 F3600
G1 X55.961 Y104.211 E38.60021
G1 X133.658 Y104.211 E40.69621
G1 X135.164 Y104.092 E40.73697
G1 X136.665 Y103.732 E40.77862
G1 X138.091 Y103.141 E40.82026
G1 X139.408 Y102.334 E40.86191
G1 X140.582 Y101.332 E40.90355
G1 X141.584 Y100.158 E40.94520
G1 X142.391 Y98.841 E40.98685
G1 X142.982 Y97.415 E41.02849
G1 X143.342 Y95.914 E41.07014
G1 X143.397 Y95.211 E41.08917
G1 X143.971 Y95.211 E41.10465
G1 X143.909 Y96.004 E41.12611
G1 X143.527 Y97.592 E41.17018
G1 X142.902 Y99.102 E41.21426
G1 X142.048 Y100.495 E41.25833
G1 X140.987 Y101.737 E41.30241
G1 X139.745 Y102.798 E41.34648
G1 X138.352 Y103.652 E41.39056
G1 X136.842 Y104.277 E41.43463
G1 X135.254 Y104.659 E41.47870
G1 X133.592 Y104.789 E41.52367
G1 X56.036 Y104.789 E43.61587
G1 X55.400 Y105.350 F7800.000
G1 F3000
G1 X55.400 Y103.650 E43.65091
G1 X133.636 Y103.650 E45.26338
G1 X135.076 Y103.537 E45.29315
G1 X136.491 Y103.197 E45.32315
G1 X137.836 Y102.640 E45.35315
G1 X139.077 Y101.879 E45.38315
G1 X140.184 Y100.934 E45.41315
G1 X141.129 Y99.827 E45.44315
G1 X141.890 Y98.586 E45.47315
G1 X142.447 Y97.241 E45.50315
G1 X142.787 Y95.826 E45.53315
G1 X142.879 Y94.650 E45.55746
G1 X144.578 Y94.650 E45.59246
G1 X144.464 Y96.092 E45.62227
G1 X144.062 Y97.766 E45.65776
G1 X143.403 Y99.357 E45.69325
G1 X142.503 Y100.825 E45.72875
G1 X141.385 Y102.135 E45.76424
G1 X140.075 Y103.253 E45.79973
G1 X138.607 Y104.153 E45.83522
G1 X137.016 Y104.812 E45.87071
G1 X135.342 Y105.214 E45.90621
G1 X133.614 Y105.350 E45.94192
G1 X55.475 Y105.350 E47.55240
G1 X55.650 Y104.917 F7800.000
G1 Z1.850 F7800.000
G1 X55.961 Y104.789 F7800.000
G1 F3600
G1 X55.961 Y104.211 E47.56801
G1 X133.658 Y104.211 E49.66401
G1 X135.164 Y104.092 E49.70477
G1 X136.665 Y103.732 E49.74641
G1 X138.091 Y103.141 E49.78806
G1 X139.408 Y102.334 E49.82971
G1 X140.582 Y101.332 E49.87135
G1 X141.584 Y100.158 E49.91300
G1 X142.391 Y98.841 E49.95464
G1 X142.982 Y97.415 E49.99629
G1 X143.342 Y95.914 E50.03794
G1 X143.397 Y95.211 E50.05697
G1 X143.971 Y95.211 E50.07244
G1 X143.909 Y96.004 E50.09391
G1 X143.527 Y97.592 E50.13798
G1 X142.902 Y99.102 E50.18206
G1 X142.048 Y100.495 E50.22613
G1 X140.987 Y101.737 E50.27020
G1 X139.745 Y102.798 E50.31428
G1 X138.352 Y103.652 E50.35835
G1 X136.842 Y104.277 E50.40243
G1 X135.254 Y104.659 E50.44650
G1 X133.592 Y104.789 E50.49146
G1 X56.036 Y104.789 E52.58367
G1 X55.400 Y105.350 F7800.000
G1 F3000
G1 X55.400 Y103.650 E52.61871
G1 X133.636 Y103.650 E54.23117
G1 X135.076 Y103.537 E54.26095
G1 X136.491 Y103.197 E54.29095
G1 X137.836 Y102.640 E54.32095
G1 X139.077 Y101.879 E54.35095
G1 X140.184 Y100.934 E54.38095
G1 X141.129 Y99.827 E54.41095
G1 X141.890 Y98.586 E54.44095
G1 X142.447 Y97.241 E54.47094
G1 X142.787 Y95.826 E54.50094
G1 X142.879 Y94.650 E54.52526
G1 X144.578 Y94.650 E54.56026
G1 X144.464 Y96.092 E54.59007
G1 X144.062 Y97.766 E54.62556
G1 X143.403 Y99.357 E54.66105
G1 X142.503 Y100.825 E54.69654
G1 X141.385 Y102.135 E54.73203
G1 X140.075 Y103.253 E54.76753
G1 X138.607 Y104.153 E54.80302
G1 X137.016 Y104.812 E54.83851
G1 X135.342 Y105.214 E54.87400
G1 X133.614 Y105.350 E54.90972
G1 X55.475 Y105.350 E56.52019
G1 X55.650 Y104.917 F7800.000
G1 Z2.150 F7800.000
G1 X55.961 Y104.789 F7800.000
G1 F3600
G1 X55.961 Y104.211 E56.53581
G1 X133.658 Y104.211 E58.63181
G1 X135.164 Y104.092 E58.67256
G1 X136.665 Y103.732 E58.71421
G1 X138.091 Y103.141 E58.75586
G1 X139.408 Y102.334 E58.79750
G1 X140.582 Y101.332 E58.83915
G1 X141.584 Y100.158 E58.88079
G1 X142.391 Y98.841 E58.92244
G1 X142.982 Y97.415 E58.96409
G1 X143.342 Y95.914 E59.00573
G1 X143.397 Y95.211 E59.02477
G1 X143.971 Y95.211 E59.04024
G1 X143.909 Y96.004 E59.06170
G1 X143.527 Y97.592 E59.10578
G1 X142.902 Y99.102 E59.14985
G1 X142.048 Y100.495 E59.19393
G1 X140.987 Y101.737 E59.23800
G1 X139.745 Y102.798 E59.28207
G1 X138.352 Y103.652 E59.32615
G1 X136.842 Y104.277 E59.37022
G1 X135.254 Y104.659 E59.41430
G1 X133.592 Y104.789 E59.45926
G1 X56.036 Y104.789 E61.55147
G1 X55.400 Y105.350 F7800.000
G1 F3000
G1 X55.400 Y103.650 E61.58650
G1 X133.636 Y103.650 E63.19897
G1 X135.076 Y103.537 E63.22875
G1 X136.491 Y103.197 E63.25875
G1 X137.836 Y102.640 E63.28874
G1 X139.077 Y101.879 E63.31874
G1 X140.184 Y100.934 E63.34874
G1 X141.129 Y99.827 E63.37874
G1 X141.890 Y98.586 E63.40874
G1 X142.447 Y97.241 E63.43874
G1 X142.787 Y95.826 E63.46874
G1 X142.879 Y94.650 E63.49305
G1 X144.578 Y94.650 E63.52806
G1 X144.464 Y96.092 E63.55786
G1 X144.062 Y97.766 E63.59336
G1 X143.403 Y99.357 E63.62885
G1 X142.503 Y100.825 E63.66434
G1 X141.385 Y102.135 E63.69983
G1 X140.075 Y103.253 E63.73532
G1 X138.607 Y104.153 E63.77082
G1 X137.016 Y104.812 E63.80631
G1 X135.342 Y105.214 E63.84180
G1 X133.614 Y105.350 E63.87751
G1 X55.475 Y105.350 E65.48799
G1 X55.650 Y104.917 F7800.000
G1 Z2.450 F7800.000
G1 X55.961 Y104.789 F7800.000
G1 F3600
G1 X55.961 Y104.211 E65.50360
G1 X133.658 Y104.211 E67.59960
G1 X135.164 Y104.092 E67.64036
G1 X136.665 Y103.732 E67.68201
G1 X138.091 Y103.141 E67.72365
G1 X139.408 Y102.334 E67.76530
G1 X140.582 Y101.332 E67.80695
G1 X141.584 Y100.158 E67.84859
G1 X142.391 Y98.841 E67.89024
G1 X142.982 Y97.415 E67.93188
G1 X143.342 Y95.914 E67.97353
G1 X143.397 Y95.211 E67.99256
G1 X143.971 Y95.211 E68.00804
G1 X143.909 Y96.004 E68.02950
G1 X143.527 Y97.592 E68.07357
G1 X142.902 Y99.102 E68.11765
G1 X142.048 Y100.495 E68.16172
G1 X140.987 Y101.737 E68.20580
G1 X139.745 Y102.798 E68.24987
G1 X138.352 Y103.652 E68.29395
G1 X136.842 Y104.277 E68.33802
G1 X135.254 Y104.659 E68.38209
G1 X133.592 Y104.789 E68.42706
G1 X56.036 Y104.789 E70.51926
G1 X55.400 Y105.350 F7800.000
G1 F3000
G1 X55.400 Y103.650 E70.55430
G1 X133.636 Y103.650 E72.16677
G1 X135.076 Y103.537 E72.19654
G1 X136.491 Y103.197 E72.22654
G1 X137.836 Y102.640 E72.25654
G1 X139.077 Y101.879 E72.28654
G1 X140.184 Y100.934 E72.31654
G1 X141.129 Y99.827 E72.34654
G1 X141.890 Y98.586 E72.37654
G1 X142.447 Y97.241 E72.40654
G1 X142.787 Y95.826 E72.43654
G1 X142.879 Y94.650 E72.46085
G1 X144.578 Y94.650 E72.49585
G1 X144.464 Y96.092 E72.52566
G1 X144.062 Y97.766 E72.56115
G1 X143.403 Y99.357 E72.59664
G1 X142.503 Y100.825 E72.63214
G1 X141.385 Y102.135 E72.66763
G1 X140.075 Y103.253 E72.70312
G1 X138.607 Y104.153 E72.73861
G1 X137.016 Y104.812 E72.77410
G1 X135.342 Y105.214 E72.80960
G1 X133.614 Y105.350 E72.84531
G1 X55.475 Y105.350 E74.45579
G1 X55.650 Y104.917 F7800.000
G1 Z2.750 F7800.000
G1 X55.961 Y104.789 F7800.000
G1 F3600
G1 X55.961 Y104.211 E74.47140
G1 X133.658 Y104.211 E76.56740
G1 X135.164 Y104.092 E76.60816
G1 X136.665 Y103.732 E76.64980
G1 X138.091 Y103.141 E76.69145
G1 X139.408 Y102.334 E76.73310
G1 X140.582 Y101.332 E76.77474
G1 X141.584 Y100.158 E76.81639
G1 X142.391 Y98.841 E76.85803
G1 X142.982 Y97.415 E76.89968
G1 X143.342 Y95.914 E76.94133
G1 X143.397 Y95.211 E76.96036
G1 X143.971 Y95.211 E76.97583
G1 X143.909 Y96.004 E76.99730
G1 X143.527 Y97.592 E77.04137
G1 X142.902 Y99.102 E77.08545
G1 X142.048 Y100.495 E77.12952
G1 X140.987 Y101.737 E77.17359
G1 X139.745 Y102.798 E77.21767
G1 X138.352 Y103.652 E77.26174
G1 X136.842 Y104.277 E77.30582
G1 X135.254 Y104.659 E77.34989
G1 X133.592 Y104.789 E77.39485
G1 X56.036 Y104.789 E79.48706
G1 X55.400 Y105.350 F7800.000
G1 F3000
G1 X55.400 Y103.650 E79.52210
G1 X133.636 Y103.650 E81.13456
G1 X135.076 Y103.537 E81.16434
G1 X136.491 Y103.197 E81.19434
G1 X137.836 Y102.640 E81.22434
G1 X139.077 Y101.879 E81.25434
G1 X140.184 Y100.934 E81.28434
G1 X141.129 Y99.827 E81.31434
G1 X141.890 Y98.586 E81.34434
G1 X142.447 Y97.241 E81.37433
G1 X142.787 Y95.826 E81.40433
G1 X142.879 Y94.650 E81.42865
G1 X144.578 Y94.650 E81.46365
G1 X144.464 Y96.092 E81.49346
G1 X144.062 Y97.766 E81.52895
G1 X143.403 Y99.357 E81.56444
G1 X142.503 Y100.825 E81.59993
G1 X141.385 Y102.135 E81.63542
G1 X140.075 Y103.253 E81.67092
G1 X138.607 Y104.153 E81.70641
G1 X137.016 Y104.812 E81.74190
G1 X135.342 Y105.214 E81.77739
G1 X133.614 Y105.350 E81.81311
G1 X55.475 Y105.350 E83.42358
G1 X55.650 Y104.917 F7800.000
G1 Z3.050 F7800.000
G1 X55.961 Y104.789 F7800.000
G1 F3600
G1 X55.961 Y104.211 E83.43920
G1 X133.658 Y104.211 E85.53520
G1 X135.164 Y104.092 E85.57595
G1 X136.665 Y103.732 E85.61760
G1 X138.091 Y103.141 E85.65925
G1 X139.408 Y102.334 E85.70089
G1 X140.582 Y101.332 E85.74254
G1 X141.584 Y100.158 E85.78418
G1 X142.391 Y98.841 E85.82583
G1 X142.982 Y97.415 E85.86748
G1 X143.342 Y95.914 E85.90912
G1 X143.397 Y95.211 E85.92816
G1 X143.971 Y95.211 E85.94363
G1 X143.909 Y96.004 E85.96509
G1 X143.527 Y97.592 E86.00917
G1 X142.902 Y99.102 E86.05324
G1 X142.048 Y100.495 E86.09732
G1 X140.987 Y101.737 E86.14139
G1 X139.745 Y102.798 E86.18546
G1 X138.352 Y103.652 E86.22954
G1 X136.842 Y104.277 E86.27361
G1 X135.254 Y104.659 E86.31769
G1 X133.592 Y104.789 E86.36265
G1 X56.036 Y104.789 E88.45486
G1 X55.400 Y105.350 F7800.000
G1 F3000
G1 X55.400 Y103.650 E88.48989
G1 X133.636 Y103.650 E90.10236
G1 X135.076 Y103.537 E90.13214
G1 X136.491 Y103.197 E90.16214
G1 X137.836 Y102.640 E90.19213
G1 X139.077 Y101.879 E90.22213
G1 X140.184 Y100.934 E90.25213
G1 X141.129 Y99.827 E90.28213
G1 X141.890 Y98.586 E90.31213
G1 X142.447 Y97.241 E90.34213
G1 X142.787 Y95.826 E90.37213
G1 X142.879 Y94.650 E90.39644
G1 X144.578 Y94.650 E90.43145
G1 X144.464 Y96.092 E90.46125
G1 X144.062 Y97.766 E90.49675
G1 X143.403 Y99.357 E90.53224
G1 X142.503 Y100.825 E90.56773
G1 X141.385 Y102.135 E90.60322
G1 X140.075 Y103.253 E90.63871
G1 X138.607 Y104.153 E90.67421
G1 X137.016 Y104.812 E90.70970
G1 X135.342 Y105.214 E90.74519
G1 X133.614 Y105.350 E90.78090
G1 X55.475 Y105.350 E92.39138
G1 X55.650 Y104.917 F7800.000
G1 Z3.350 F7800.000
G1 X55.961 Y104.789 F7800.000
G1 F3600
G1 X55.961 Y104.211 E92.40699
G1 X133.658 Y104.211 E94.50299
G1 X135.164 Y104.092 E94.54375
G1 X136.665 Y103.732 E94.58540
G1 X138.091 Y103.141 E94.62704
G1 X139.408 Y102.334 E94.66869
G1 X140.582 Y101.332 E94.71034
G1 X141.584 Y100.158 E94.75198
G1 X142.391 Y98.841 E94.79363
G1 X142.982 Y97.415 E94.83527
G1 X143.342 Y95.914 E94.87692
G1 X143.397 Y95.211 E94.89595
G1 X143.971 Y95.211 E94.91143
G1 X143.909 Y96.004 E94.93289
G1 X143.527 Y97.592 E94.97696
G1 X142.902 Y99.102 E95.02104
G1 X142.048 Y100.495 E95.06511
G1 X140.987 Y101.737 E95.10919
G1 X139.745 Y102.798 E95.15326
G1 X138.352 Y103.652 E95.19734
G1 X136.842 Y104.277 E95.24141
G1 X135.254 Y104.659 E95.28548
G1 X133.592 Y104.789 E95.33045
G1 X56.036 Y104.789 E97.42265
G1 X55.400 Y105.350 F7800.000
G1 F3000
G1 X55.400 Y103.650 E97.45769
G1 X133.636 Y103.650 E99.07016
G1 X135.076 Y103.537 E99.09993
G1 X136.491 Y103.197 E99.12993
G1 X137.836 Y102.640 E99.15993
G1 X139.077 Y101.879 E99.18993
G1 X140.184 Y100.934 E99.21993
G1 X141.129 Y99.827 E99.24993
G1 X141.890 Y98.586 E99.27993
G1 X142.447 Y97.241 E99.30993
G1 X142.787 Y95.826 E99.33993
G1 X142.879 Y94.650 E99.36424
G1 X144.578 Y94.650 E99.39924
G1 X144.464 Y96.092 E99.42905
G1 X144.062 Y97.766 E99.46454
G1 X143.403 Y99.357 E99.50003
G1 X142.503 Y100.825 E99.53553
G1 X141.385 Y102.135 E99.57102
G1 X140.075 Y103.253 E99.60651
G1 X138.607 Y104.153 E99.64200
G1 X137.016 Y104.812 E99.67749
G1 X135.342 Y105.214 E99.71299
G1 X133.614 Y105.350 E99.74870
G1 X55.475 Y105.350 E101.35918
G1 X55.650 Y104.917 F7800.000
G1 Z3.650 F7800.000
G1 X55.961 Y104.789 F7800.000
G1 F3600
G1 X55.961 Y104.211 E101.37479
G1 X133.658 Y104.211 E103.47079
G1 X135.164 Y104.092 E103.51155
G1 X136.665 Y103.732 E103.55319
G1 X138.091 Y103.141 E103.59484
G1 X139.408 Y102.334 E103.63649
G1 X140.582 Y101.332 E103.67813
G1 X141.584 Y100.158 E103.71978
G1 X142.391 Y98.841 E103.76142
G1 X142.982 Y97.415 E103.80307
G1 X143.342 Y95.914 E103.84472
G1 X143.397 Y95.211 E103.86375
G1 X143.971 Y95.211 E103.87922
G1 X143.909 Y96.004 E103.90069
G1 X143.527 Y97.592 E103.94476
G1 X142.902 Y99.102 E103.98884
G1 X142.048 Y100.495 E104.03291
G1 X140.987 Y101.737 E104.07698
G1 X139.745 Y102.798 E104.12106
G1 X138.352 Y103.652 E104.16513
G1 X136.842 Y104.277 E104.20921
G1 X135.254 Y104.659 E104.25328
G1 X133.592 Y104.789 E104.29824
G1 X56.036 Y104.789 E106.39045
G1 X55.400 Y105.350 F7800.000
G1 F3000
G1 X55.400 Y103.650 E106.42549
G1 X133.636 Y103.650 E108.03795
G1 X135.076 Y103.537 E108.06773
G1 X136.491 Y103.197 E108.09773
G1 X137.836 Y102.640 E108.12773
G1 X139.077 Y101.879 E108.15773
G1 X140.184 Y100.934 E108.18773
G1 X141.129 Y99.827 E108.21773
G1 X141.890 Y98.586 E108.24773
G1 X142.447 Y97.241 E108.27772
G1 X142.787 Y95.826 E108.30772
G1 X142.879 Y94.650 E108.33204
G1 X144.578 Y94.650 E108.36704
G1 X144.464 Y96.092 E108.39685
G1 X144.062 Y97.766 E108.43234
G1 X143.403 Y99.357 E108.46783
G1 X142.503 Y100.825 E108.50332
G1 X141.385 Y102.135 E108.53881
G1 X140.075 Y103.253 E108.57431
G1 X138.607 Y104.153 E108.60980
G1 X137.016 Y104.812 E108.64529
G1 X135.342 Y105.214 E108.68078
G1 X133.614 Y105.350 E108.71650
G1 X55.475 Y105.350 E110.32697
G1 X55.650 Y104.917 F7800.000
G1 Z3.950 F7800.000
G1 X55.961 Y104.789 F7800.000
G1 F3600
G1 X55.961 Y104.211 E110.34259
G1 X133.658 Y104.211 E112.43859
G1 X135.164 Y104.092 E112.47934
G1 X136.665 Y103.732 E112.52099
G1 X138.091 Y103.141 E112.56264
G1 X139.408 Y102.334 E112.60428
G1 X140.582 Y101.332 E112.64593
G1 X141.584 Y100.158 E112.68757
G1 X142.391 Y98.841 E112.72922
G1 X142.982 Y97.415 E112.77087
G1 X143.342 Y95.914 E112.81251
G1 X143.397 Y95.211 E112.83155
G1 X143.971 Y95.211 E112.84702
G1 X143.909 Y96.004 E112.86848
G1 X143.527 Y97.592 E112.91256
G1 X142.902 Y99.102 E112.95663
G1 X142.048 Y100.495 E113.00071
G1 X140.987 Y101.737 E113.04478
G1 X139.745 Y102.798 E113.08886
G1 X138.352 Y103.652 E113.13293
G1 X136.842 Y104.277 E113.17700
G1 X135.254 Y104.659 E113.22108
G1 X133.592 Y104.789 E113.26604
G1 X56.036 Y104.789 E115.35825
G1 X55.400 Y105.350 F7800.000
G1 F3000
G1 X55.400 Y103.650 E115.39328
G1 X133.636 Y103.650 E117.00575
G1 X135.076 Y103.537 E117.03553
G1 X136.491 Y103.197 E117.06553
G1 X137.836 Y102.640 E117.09552
G1 X139.077 Y101.879 E117.12552
G1 X140.184 Y100.934 E117.15552
G1 X141.129 Y99.827 E117.18552
G1 X141.890 Y98.586 E117.21552
G1 X142.447 Y97.241 E117.24552
G1 X142.787 Y95.826 E117.27552
G1 X142.879 Y94.650 E117.29984
G1 X144.578 Y94.650 E117.33484
G1 X144.464 Y96.092 E117.36464
G1 X144.062 Y97.766 E117.40014
G1 X143.403 Y99.357 E117.43563
G1 X142.503 Y100.825 E117.47112
G1 X141.385 Y102.135 E117.50661
G1 X140.075 Y103.253 E117.54210
G1 X138.607 Y104.153 E117.57760
G1 X137.016 Y104.812 E117.61309
G1 X135.342 Y105.214 E117.64858
G1 X133.614 Y105.350 E117.68429
G1 X55.475 Y105.350 E119.29477
G1 X55.650 Y104.917 F7800.000
G1 Z4.250 F7800.000
G1 X55.961 Y104.789 F7800.000
G1 F3600
G1 X55.961 Y104.211 E119.31038
G1 X133.658 Y104.211 E121.40638
G1 X135.164 Y104.092 E121.44714
G1 X136.665 Y103.732 E121.48879
G1 X138.091 Y103.141 E121.53043
G1 X139.408 Y102.334 E121.57208
G1 X140.582 Y101.332 E121.61373
G1 X141.584 Y100.158 E121.65537
G1 X142.391 Y98.841 E121.69702
G1 X142.982 Y97.415 E121.73866
G1 X143.342 Y95.914 E121.78031
G1 X143.397 Y95.211 E121.79934
G1 X143.971 Y95.211 E121.81482
G1 X143.909 Y96.004 E121.83628
G1 X143.527 Y97.592 E121.88035
G1 X142.902 Y99.102 E121.92443
G1 X142.048 Y100.495 E121.96850
G1 X140.987 Y101.737 E122.01258
G1 X139.745 Y102.798 E122.05665
G1 X138.352 Y103.652 E122.10073
G1 X136.842 Y104.277 E122.14480
G1 X135.254 Y104.659 E122.18887
G1 X133.592 Y104.789 E122.23384
G1 X56.036 Y104.789 E124.32604
G1 X55.400 Y105.350 F7800.000
G1 F3000
G1 X55.400 Y103.650 E124.36108
G1 X133.636 Y103.650 E125.97355
G1 X135.076 Y103.537 E126.00332
G1 X136.491 Y103.197 E126.03332
G1 X137.836 Y102.640 E126.06332
G1 X139.077 Y101.879 E126.09332
G1 X140.184 Y100.934 E126.12332
G1 X141.129 Y99.827 E126.15332
G1 X141.890 Y98.586 E126.18332
G1 X142.447 Y97.241 E126.21332
G1 X142.787 Y95.826 E126.24332
G1 X142.879 Y94.650 E126.26763
G1 X144.578 Y94.650 E126.30263
G1 X144.464 Y96.092 E126.33244
G1 X144.062 Y97.766 E126.36793
G1 X143.403 Y99.357 E126.40342
G1 X142.503 Y100.825 E126.43892
G1 X141.385 Y102.135 E126.47441
G1 X140.075 Y103.253 E126.50990
G1 X138.607 Y104.153 E126.54539
G1 X137.016 Y104.812 E126.58088
G1 X135.342 Y105.214 E126.61638
G1 X133.614 Y105.350 E126.65209
G1 X55.475 Y105.350 E128.26257
G1 X55.650 Y104.917 F7800.000
G1 Z4.550 F7800.000
G1 X55.961 Y104.789 F7800.000
G1 F3600
G1 X55.961 Y104.211 E128.27818
G1 X133.658 Y104.211 E130.37418
G1 X135.164 Y104.092 E130.41494
G1 X136.665 Y103.732 E130.45658
G1 X138.091 Y103.141 E130.49823
G1 X139.408 Y102.334 E130.53988
G1 X140.582 Y101.332 E130.58152
G1 X141.584 Y100.158 E130.62317
G1 X142.391 Y98.841 E130.66481
G1 X142.982 Y97.415 E130.70646
G1 X143.342 Y95.914 E130.74811
G1 X143.397 Y95.211 E130.76714
G1 X143.971 Y95.211 E130.78261
G1 X143.909 Y96.004 E130.80408
G1 X143.527 Y97.592 E130.84815
G1 X142.902 Y99.102 E130.89223
G1 X142.048 Y100.495 E130.93630
G1 X140.987 Y101.737 E130.98037
G1 X139.745 Y102.798 E131.02445
G1 X138.352 Y103.652 E131.06852
G1 X136.842 Y104.277 E131.11260
G1 X135.254 Y104.659 E131.15667
G1 X133.592 Y104.789 E131.20163
G1 X56.036 Y104.789 E133.29384
G1 X55.400 Y105.350 F7800.000
G1 F3000
G1 X55.400 Y103.650 E133.32888
G1 X133.636 Y103.650 E134.94134
G1 X135.076 Y103.537 E134.97112
G1 X136.491 Y103.197 E135.00112
G1 X137.836 Y102.640 E135.03112
G1 X139.077 Y101.879 E135.06112
G1 X140.184 Y100.934 E135.09112
G1 X141.129 Y99.827 E135.12112
G1 X141.890 Y98.586 E135.15112
G1 X142.447 Y97.241 E135.18112
G1 X142.787 Y95.826 E135.21111
G1 X142.879 Y94.650 E135.23543
G1 X144.578 Y94.650 E135.27043
G1 X144.464 Y96.092 E135.30024
G1 X144.062 Y97.766 E135.33573
G1 X143.403 Y99.357 E135.37122
G1 X142.503 Y100.825 E135.40671
G1 X141.385 Y102.135 E135.44220
G1 X140.075 Y103.253 E135.47770
G1 X138.607 Y104.153 E135.51319
G1 X137.016 Y104.812 E135.54868
G1 X135.342 Y105.214 E135.58417
G1 X133.614 Y105.350 E135.61989
G1 X55.475 Y105.350 E137.23036
G1 X55.650 Y104.917 F7800.000
G1 Z4.850 F7800.000
G1 X55.961 Y104.789 F7800.000
G1 F3600
G1 X55.961 Y104.211 E137.24598
G1 X133.658 Y104.211 E139.34198
G1 X135.164 Y104.092 E139.38273
G1 X136.665 Y103.732 E139.42438
G1 X138.091 Y103.141 E139.46603
G1 X139.408 Y102.334 E139.50767
G1 X140.582 Y101.332 E139.54932
G1 X141.584 Y100.158 E139.59097
G1 X142.391 Y98.841 E139.63261
G1 X142.982 Y97.415 E139.67426
G1 X143.342 Y95.914 E139.71590
G1 X143.397 Y95.211 E139.73494
G1 X143.971 Y95.211 E139.75041
G1 X143.909 Y96.004 E139.77187
G1 X143.527 Y97.592 E139.81595
G1 X142.902 Y99.102 E139.86002
G1 X142.048 Y100.495 E139.90410
G1 X140.987 Y101.737 E139.94817
G1 X139.745 Y102.798 E139.99225
G1 X138.352 Y103.652 E140.03632
G1 X136.842 Y104.277 E140.08039
G1 X135.254 Y104.659 E140.12447
G1 X133.592 Y104.789 E140.16943
G1 X56.036 Y104.789 E142.26164
G1 X55.400 Y105.350 F7800.000
G1 F3000
G1 X55.400 Y103.650 E142.29667
G1 X133.636 Y103.650 E143.90914
G1 X135.076 Y103.537 E143.93892
G1 X136.491 Y103.197 E143.96892
G1 X137.836 Y102.640 E143.99892
G1 X139.077 Y101.879 E144.02891
G1 X140.184 Y100.934 E144.05891
G1 X141.129 Y99.827 E144.08891
G1 X141.890 Y98.586 E144.11891
G1 X142.447 Y97.241 E144.14891
G1 X142.787 Y95.826 E144.17891
G1 X142.879 Y94.650 E144.20323
G1 X144.578 Y94.650 E144.23823
G1 X144.464 Y96.092 E144.26803
G1 X144.062 Y97.766 E144.30353
G1 X143.403 Y99.357 E144.33902
G1 X142.503 Y100.825 E144.37451
G1 X141.385 Y102.135 E144.41000
G1 X140.075 Y103.253 E144.44549
G1 X138.607 Y104.153 E144.48099
G1 X137.016 Y104.812 E144.51648
G1 X135.342 Y105.214 E144.55197
G1 X133.614 Y105.350 E144.58768
G1 X55.475 Y105.350 E146.19816
G1 X55.650 Y104.917 F7800.000
G1 Z5.150 F7800.000
G1 X55.961 Y104.789 F7800.000
G1 F3600
G1 X55.961 Y104.211 E146.21377
G1 X133.658 Y104.211 E148.30977
G1 X135.164 Y104.092 E148.35053
G1 X136.665 Y103.732 E148.39218
G1 X138.091 Y103.141 E148.43382
G1 X139.408 Y102.334 E148.47547
G1 X140.582 Y101.332 E148.51712
G1 X141.584 Y100.158 E148.55876
G1 X142.391 Y98.841 E148.60041
G1 X142.982 Y97.415 E148.64205
G1 X143.342 Y95.914 E148.68370
G1 X143.397 Y95.211 E148.70273
G1 X143.971 Y95.211 E148.71821
G1 X143.909 Y96.004 E148.73967
G1 X143.527 Y97.592 E148.78374
G1 X142.902 Y99.102 E148.82782
G1 X142.048 Y100.495 E148.87189
G1 X140.987 Y101.737 E148.91597
G1 X139.745 Y102.798 E148.96004
G1 X138.352 Y103.652 E149.00412
G1 X136.842 Y104.277 E149.04819
G1 X135.254 Y104.659 E149.09226
G1 X133.592 Y104.789 E149.13723
G1 X56.036 Y104.789 E151.22943
G1 X55.400 Y105.350 F7800.000
G1 F3000
G1 X55.400 Y103.650 E151.26447
G1 X133.636 Y103.650 E152.87694
G1 X135.076 Y103.537 E152.90671
G1 X136.491 Y103.197 E152.93671
G1 X137.836 Y102.640 E152.96671
G1 X139.077 Y101.879 E152.99671
G1 X140.184 Y100.934 E153.02671
G1 X141.129 Y99.827 E153.05671
G1 X141.890 Y98.586 E153.08671
G1 X142.447 Y97.241 E153.11671
G1 X142.787 Y95.826 E153.14671
G1 X142.879 Y94.650 E153.17102
G1 X144.578 Y94.650 E153.20602
G1 X144.464 Y96.092 E153.23583
G1 X144.062 Y97.766 E153.27132
G1 X143.403 Y99.357 E153.30681
G1 X142.503 Y100.825 E153.34231
G1 X141.385 Y102.135 E153.37780
G1 X140.075 Y103.253 E153.41329
G1 X138.607 Y104.153 E153.44878
G1 X137.016 Y104.812 E153.48427
G1 X135.342 Y105.214 E153.51977
G1 X133.614 Y105.350 E153.55548
G1 X55.475 Y105.350 E155.16596
G1 X55.650 Y104.917 F7800.000
G1 Z5.450 F7800.000
G1 X55.961 Y104.789 F7800.000
G1 F3600
G1 X55.961 Y104.211 E155.18157
G1 X133.658 Y104.211 E157.27757
G1 X135.164 Y104.092 E157.31833
G1 X136.665 Y103.732 E157.35997
G1 X138.091 Y103.141 E157.40162
G1 X139.408 Y102.334 E157.44327
G1 X140.582 Y101.332 E157.48491
G1 X141.584 Y100.158 E157.52656
G1 X142.391 Y98.841 E157.56820
G1 X142.982 Y97.415 E157.60985
G1 X143.342 Y95.914 E157.65150
G1 X143.397 Y95.211 E157.67053
G1 X143.971 Y95.211 E157.68601
G1 X143.909 Y96.004 E157.70747
G1 X143.527 Y97.592 E157.75154
G1 X142.902 Y99.102 E157.79562
G1 X142.048 Y100.495 E157.83969
G1 X140.987 Y101.737 E157.88376
G1 X139.745 Y102.798 E157.92784
G1 X138.352 Y103.652 E157.97191
G1 X136.842 Y104.277 E158.01599
G1 X135.254 Y104.659 E158.06006
G1 X133.592 Y104.789 E158.10502
G1 X56.036 Y104.789 E160.19723
G1 X55.400 Y105.350 F7800.000
G1 F3000
G1 X55.400 Y103.650 E160.23227
G1 X133.636 Y103.650 E161.84473
G1 X135.076 Y103.537 E161.87451
G1 X136.491 Y103.197 E161.90451
G1 X137.836 Y102.640 E161.93451
G1 X139.077 Y101.879 E161.96451
G1 X140.184 Y100.934 E161.99451
G1 X141.129 Y99.827 E162.02451
G1 X141.890 Y98.586 E162.05451
G1 X142.447 Y97.241 E162.08451
G1 X142.787 Y95.826 E162.11450
G1 X142.879 Y94.650 E162.13882
G1 X144.578 Y94.650 E162.17382
G1 X144.464 Y96.092 E162.20363
G1 X144.062 Y97.766 E162.23912
G1 X143.403 Y99.357 E162.27461
G1 X142.503 Y100.825 E162.31010
G1 X141.385 Y102.135 E162.34560
G1 X140.075 Y103.253 E162.38109
G1 X138.607 Y104.153 E162.41658
G1 X137.016 Y104.812 E162.45207
G1 X135.342 Y105.214 E162.48756
G1 X133.614 Y105.350 E162.52328
G1 X55.475 Y105.350 E164.13375
G1 X55.650 Y104.917 F7800.000
G1 Z5.750 F7800.000
G1 X55.961 Y104.789 F7800.000
G1 F3600
G1 X55.961 Y104.211 E164.14937
G1 X133.658 Y104.211 E166.24537
G1 X135.164 Y104.092 E166.28612
G1 X136.665 Y103.732 E166.32777
G1 X138.091 Y103.141 E166.36942
G1 X139.408 Y102.334 E166.41106
G1 X140.582 Y101.332 E166.45271
G1 X141.584 Y100.158 E166.49436
G1 X142.391 Y98.841 E166.53600
G1 X142.982 Y97.415 E166.57765
G1 X143.342 Y95.914 E166.61929
G1 X143.397 Y95.211 E166.63833
G1 X143.971 Y95.211 E166.65380
G1 X143.909 Y96.004 E166.67526
G1 X143.527 Y97.592 E166.71934
G1 X142.902 Y99.102 E166.76341
G1 X142.048 Y100.495 E166.80749
G1 X140.987 Y101.737 E166.85156
G1 X139.745 Y102.798 E166.89564
G1 X138.352 Y103.652 E166.93971
G1 X136.842 Y104.277 E166.98378
G1 X135.254 Y104.659 E167.02786
G1 X133.592 Y104.789 E167.07282
G1 X56.036 Y104.789 E169.16503
G1 X55.400 Y105.350 F7800.000
G1 F3000
G1 X55.400 Y103.650 E169.20006
G1 X133.636 Y103.650 E170.81253
G1 X135.076 Y103.537 E170.84231
G1 X136.491 Y103.197 E170.87231
G1 X137.836 Y102.640 E170.90231
G1 X139.077 Y101.879 E170.93230
G1 X140.184 Y100.934 E170.96230
G1 X141.129 Y99.827 E170.99230
G1 X141.890 Y98.586 E171.02230
G1 X142.447 Y97.241 E171.05230
G1 X142.787 Y95.826 E171.08230
G1 X142.879 Y94.650 E171.10662
G1 X144.578 Y94.650 E171.14162
G1 X144.464 Y96.092 E171.17142
G1 X144.062 Y97.766 E171.20692
G1 X143.403 Y99.357 E171.24241
G1 X142.503 Y100.825 E171.27790
G1 X141.385 Y102.135 E171.31339
G1 X140.075 Y103.253 E171.34888
G1 X138.607 Y104.153 E171.38438
G1 X137.016 Y104.812 E171.41987
G1 X135.342 Y105.214 E171.45536
G1 X133.614 Y105.350 E171.49107
G1 X55.475 Y105.350 E173.10155
G1 X55.650 Y104.917 F7800.000
G1 Z6.050 F7800.000
G1 X55.961 Y104.789 F7800.000
G1 F3600
G1 X55.961 Y104.211 E173.11716
G1 X133.658 Y104.211 E175.21316
G1 X135.164 Y104.092 E175.25392
G1 X136.665 Y103.732 E175.29557
G1 X138.091 Y103.141 E175.33721
G1 X139.408 Y102.334 E175.37886
G1 X140.582 Y101.332 E175.42051
G1 X141.584 Y100.158 E175.46215
G1 X142.391 Y98.841 E175.50380
G1 X142.982 Y97.415 E175.54544
G1 X143.342 Y95.914 E175.58709
G1 X143.397 Y95.211 E175.60612
G1 X143.971 Y95.211 E175.62160
G1 X143.909 Y96.004 E175.64306
G1 X143.527 Y97.592 E175.68714
G1 X142.902 Y99.102 E175.73121
G1 X142.048 Y100.495 E175.77528
G1 X140.987 Y101.737 E175.81936
G1 X139.745 Y102.798 E175.86343
G1 X138.352 Y103.652 E175.90751
G1 X136.842 Y104.277 E175.95158
G1 X135.254 Y104.659 E175.99566
G1 X133.592 Y104.789 E176.04062
G1 X56.036 Y104.789 E178.13282
G1 X55.400 Y105.350 F7800.000
G1 F3000
G1 X55.400 Y103.650 E178.16786
G1 X133.636 Y103.650 E179.78033
G1 X135.076 Y103.537 E179.81010
G1 X136.491 Y103.197 E179.84010
G1 X137.836 Y102.640 E179.87010
G1 X139.077 Y101.879 E179.90010
G1 X140.184 Y100.934 E179.93010
G1 X141.129 Y99.827 E179.96010
G1 X141.890 Y98.586 E179.99010
G1 X142.447 Y97.241 E180.02010
G1 X142.787 Y95.826 E180.05010
G1 X142.879 Y94.650 E180.07441
G1 X144.578 Y94.650 E180.10941
G1 X144.464 Y96.092 E180.13922
G1 X144.062 Y97.766 E180.17471
G1 X143.403 Y99.357 E180.21021
G1 X142.503 Y100.825 E180.24570
G1 X141.385 Y102.135 E180.28119
G1 X140.075 Y103.253 E180.31668
G1 X138.607 Y104.153 E180.35217
G1 X137.016 Y104.812 E180.38766
G1 X135.342 Y105.214 E180.42316
G1 X133.614 Y105.350 E180.45887
G1 X55.475 Y105.350 E182.06935
G1 X55.650 Y104.917 F7800.000
G1 Z6.350 F7800.000
G1 X55.961 Y104.789 F7800.000
G1 F3600
G1 X55.961 Y104.211 E182.08496
G1 X133.658 Y104.211 E184.18096
G1 X135.164 Y104.092 E184.22172
G1 X136.665 Y103.732 E184.26336
G1 X138.091 Y103.141 E184.30501
G1 X139.408 Y102.334 E184.34666
G1 X140.582 Y101.332 E184.38830
G1 X141.584 Y100.158 E184.42995
G1 X142.391 Y98.841 E184.47160
G1 X142.982 Y97.415 E184.51324
G1 X143.342 Y95.914 E184.55489
G1 X143.397 Y95.211 E184.57392
G1 X143.971 Y95.211 E184.58940
G1 X143.909 Y96.004 E184.61086
G1 X143.527 Y97.592 E184.65493
G1 X142.902 Y99.102 E184.69901
G1 X142.048 Y100.495 E184.74308
G1 X140.987 Y101.737 E184.78715
G1 X139.745 Y102.798 E184.83123
G1 X138.352 Y103.652 E184.87530
G1 X136.842 Y104.277 E184.91938
G1 X135.254 Y104.659 E184.96345
G1 X133.592 Y104.789 E185.00841
G1 X56.036 Y104.789 E187.10062
G1 X55.400 Y105.350 F7800.000
G1 F3000
G1 X55.400 Y103.650 E187.13566
G1 X133.636 Y103.650 E188.74812
G1 X135.076 Y103.537 E188.77790
G1 X136.491 Y103.197 E188.80790
G1 X137.836 Y102.640 E188.83790
G1 X139.077 Y101.879 E188.86790
G1 X140.184 Y100.934 E188.89790
G1 X141.129 Y99.827 E188.92790
G1 X141.890 Y98.586 E188.95790
G1 X142.447 Y97.241 E188.98790
G1 X142.787 Y95.826 E189.01790
G1 X142.879 Y94.650 E189.04221
G1 X144.578 Y94.650 E189.07721
G1 X144.464 Y96.092 E189.10702
G1 X144.062 Y97.766 E189.14251
G1 X143.403 Y99.357 E189.17800
G1 X142.503 Y100.825 E189.21349
G1 X141.385 Y102.135 E189.24899
G1 X140.075 Y103.253 E189.28448
G1 X138.607 Y104.153 E189.31997
G1 X137.016 Y104.812 E189.35546
G1 X135.342 Y105.214 E189.39095
G1 X133.614 Y105.350 E189.42667
G1 X55.475 Y105.350 E191.03714
G1 X55.650 Y104.917 F7800.000
G1 Z6.650 F7800.000
G1 X55.961 Y104.789 F7800.000
G1 F3600
G1 X55.961 Y104.211 E191.05276
G1 X133.658 Y104.211 E193.14876
G1 X135.164 Y104.092 E193.18951
G1 X136.665 Y103.732 E193.23116
G1 X138.091 Y103.141 E193.27281
G1 X139.408 Y102.334 E193.31445
G1 X140.582 Y101.332 E193.35610
G1 X141.584 Y100.158 E193.39775
G1 X142.391 Y98.841 E193.43939
G1 X142.982 Y97.415 E193.48104
G1 X143.342 Y95.914 E193.52268
G1 X143.397 Y95.211 E193.54172
G1 X143.971 Y95.211 E193.55719
G1 X143.909 Y96.004 E193.57865
G1 X143.527 Y97.592 E193.62273
G1 X142.902 Y99.102 E193.66680
G1 X142.048 Y100.495 E193.71088
G1 X140.987 Y101.737 E193.75495
G1 X139.745 Y102.798 E193.79903
G1 X138.352 Y103.652 E193.84310
G1 X136.842 Y104.277 E193.88717
G1 X135.254 Y104.659 E193.93125
G1 X133.592 Y104.789 E193.97621
G1 X56.036 Y104.789 E196.06842
G1 X55.400 Y105.350 F7800.000
G1 F3000
G1 X55.400 Y103.650 E196.10346
G1 X133.636 Y103.650 E197.71592
G1 X135.076 Y103.537 E197.74570
G1 X136.491 Y103.197 E197.77570
G1 X137.836 Y102.640 E197.80570
G1 X139.077 Y101.879 E197.83570
G1 X140.184 Y100.934 E197.86569
G1 X141.129 Y99.827 E197.89569
G1 X141.890 Y98.586 E197.92569
G1 X142.447 Y97.241 E197.95569
G1 X142.787 Y95.826 E197.98569
G1 X142.879 Y94.650 E198.01001
G1 X144.578 Y94.650 E198.04501
G1 X144.464 Y96.092 E198.07481
G1 X144.062 Y97.766 E198.11031
G1 X143.403 Y99.357 E198.14580
G1 X142.503 Y100.825 E198.18129
G1 X141.385 Y102.135 E198.21678
G1 X140.075 Y103.253 E198.25227
G1 X138.607 Y104.153 E198.28777
G1 X137.016 Y104.812 E198.32326
G1 X135.342 Y105.214 E198.35875
G1 X133.614 Y105.350 E198.39447
G1 X55.475 Y105.350 E200.00494
G1 X55.650 Y104.917 F7800.000
G1 Z6.950 F7800.000
G1 X55.961 Y104.789 F7800.000
G1 F3600
G1 X55.961 Y104.211 E200.02055
G1 X133.658 Y104.211 E202.11655
G1 X135.164 Y104.092 E202.15731
G1 X136.665 Y103.732 E202.19896
G1 X138.091 Y103.141 E202.24060
G1 X139.408 Y102.334 E202.28225
G1 X140.582 Y101.332 E202.32390
G1 X141.584 Y100.158 E202.36554
G1 X142.391 Y98.841 E202.40719
G1 X142.982 Y97.415 E202.44883
G1 X143.342 Y95.914 E202.49048
G1 X143.397 Y95.211 E202.50952
G1 X143.971 Y95.211 E202.52499
G1 X143.909 Y96.004 E202.54645
G1 X143.527 Y97.592 E202.59053
G1 X142.902 Y99.102 E202.63460
G1 X142.048 Y100.495 E202.67867
G1 X140.987 Y101.737 E202.72275
G1 X139.745 Y102.798 E202.76682
G1 X138.352 Y103.652 E202.81090
G1 X136.842 Y104.277 E202.85497
G1 X135.254 Y104.659 E202.89905
G1 X133.592 Y104.789 E202.94401
G1 X56.036 Y104.789 E205.03621
G1 X55.400 Y105.350 F7800.000
G1 F3000
G1 X55.400 Y103.650 E205.07125
G1 X133.636 Y103.650 E206.68372
G1 X135.076 Y103.537 E206.71349
G1 X136.491 Y103.197 E206.74349
G1 X137.836 Y102.640 E206.77349
G1 X139.077 Y101.879 E206.80349
G1 X140.184 Y100.934 E206.83349
G1 X141.129 Y99.827 E206.86349
G1 X141.890 Y98.586 E206.89349
G1 X142.447 Y97.241 E206.92349
G1 X142.787 Y95.826 E206.95349
G1 X142.879 Y94.650 E206.97780
G1 X144.578 Y94.650 E207.01280
G1 X144.464 Y96.092 E207.04261
G1 X144.062 Y97.766 E207.07810
G1 X143.403 Y99.357 E207.11360
G1 X142.503 Y100.825 E207.14909
G1 X141.385 Y102.135 E207.18458
G1 X140.075 Y103.253 E207.22007
G1 X138.607 Y104.153 E207.25556
G1 X137.016 Y104.812 E207.29105
G1 X135.342 Y105.214 E207.32655
G1 X133.614 Y105.350 E207.36226
G1 X55.475 Y105.350 E208.97274
G1 X55.650 Y104.917 F7800.000
G1 Z7.250 F7800.000
G1 X55.961 Y104.789 F7800.000
G1 F3600
G1 X55.961 Y104.211 E208.98835
G1 X133.658 Y104.211 E211.08435
G1 X135.164 Y104.092 E211.12511
G1 X136.665 Y103.732 E211.16675
G1 X138.091 Y103.141 E211.20840
G1 X139.408 Y102.334 E211.25005
G1 X140.582 Y101.332 E211.29169
G1 X141.584 Y100.158 E211.33334
G1 X142.391 Y98.841 E211.37499
G1 X142.982 Y97.415 E211.41663
G1 X143.342 Y95.914 E211.45828
G1 X143.397 Y95.211 E211.47731
G1 X143.971 Y95.211 E211.49279
G1 X143.909 Y96.004 E211.51425
G1 X143.527 Y97.592 E211.55832
G1 X142.902 Y99.102 E211.60240
G1 X142.048 Y100.495 E211.64647
G1 X140.987 Y101.737 E211.69054
G1 X139.745 Y102.798 E211.73462
G1 X138.352 Y103.652 E211.77869
G1 X136.842 Y104.277 E211.82277
G1 X135.254 Y104.659 E211.86684
G1 X133.592 Y104.789 E211.91180
G1 X56.036 Y104.789 E214.00401
G1 X55.400 Y105.350 F7800.000
G1 F3000
G1 X55.400 Y103.650 E214.03905
G1 X133.636 Y103.650 E215.65151
G1 X135.076 Y103.537 E215.68129
G1 X136.491 Y103.197 E215.71129
G1 X137.836 Y102.640 E215.74129
G1 X139.077 Y101.879 E215.77129
G1 X140.184 Y100.934 E215.80129
G1 X141.129 Y99.827 E215.83129
G1 X141.890 Y98.586 E215.86129
G1 X142.447 Y97.241 E215.89129
G1 X142.787 Y95.826 E215.92129
G1 X142.879 Y94.650 E215.94560
G1 X144.578 Y94.650 E215.98060
G1 X144.464 Y96.092 E216.01041
G1 X144.062 Y97.766 E216.04590
G1 X143.403 Y99.357 E216.08139
G1 X142.503 Y100.825 E216.11688
G1 X141.385 Y102.135 E216.15238
G1 X140.075 Y103.253 E216.18787
G1 X138.607 Y104.153 E216.22336
G1 X137.016 Y104.812 E216.25885
G1 X135.342 Y105.214 E216.29434
G1 X133.614 Y105.350 E216.33006
G1 X55.475 Y105.350 E217.94053
G1 X55.650 Y104.917 F7800.000
G1 Z7.550 F7800.000
G1 X55.961 Y104.789 F7800.000
G1 F3600
G1 X55.961 Y104.211 E217.95615
G1 X133.658 Y104.211 E220.05215
G1 X135.164 Y104.092 E220.09291
G1 X136.665 Y103.732 E220.13455
G1 X138.091 Y103.141 E220.17620
G1 X139.408 Y102.334 E220.21784
G1 X140.582 Y101.332 E220.25949
G1 X141.584 Y100.158 E220.30114
G1 X142.391 Y98.841 E220.34278
G1 X142.982 Y97.415 E220.38443
G1 X143.342 Y95.914 E220.42607
G1 X143.397 Y95.211 E220.44511
G1 X143.971 Y95.211 E220.46058
G1 X143.909 Y96.004 E220.48204
G1 X143.527 Y97.592 E220.52612
G1 X142.902 Y99.102 E220.57019
G1 X142.048 Y100.495 E220.61427
G1 X140.987 Y101.737 E220.65834
G1 X139.745 Y102.798 E220.70242
G1 X138.352 Y103.652 E220.74649
G1 X136.842 Y104.277 E220.79056
G1 X135.254 Y104.659 E220.83464
G1 X133.592 Y104.789 E220.87960
G1 X56.036 Y104.789 E222.97181
G1 X55.400 Y105.350 F7800.000
G1 F3000
G1 X55.400 Y103.650 E223.00685
G1 X133.636 Y103.650 E224.61931
G1 X135.076 Y103.537 E224.64909
G1 X136.491 Y103.197 E224.67909
G1 X137.836 Y102.640 E224.70909
G1 X139.077 Y101.879 E224.73909
G1 X140.184 Y100.934 E224.76908
G1 X141.129 Y99.827 E224.79908
G1 X141.890 Y98.586 E224.82908
G1 X142.447 Y97.241 E224.85908
G1 X142.787 Y95.826 E224.88908
G1 X142.879 Y94.650 E224.91340
G1 X144.578 Y94.650 E224.94840
G1 X144.464 Y96.092 E224.97820
G1 X144.062 Y97.766 E225.01370
G1 X143.403 Y99.357 E225.04919
G1 X142.503 Y100.825 E225.08468
G1 X141.385 Y102.135 E225.12017
G1 X140.075 Y103.253 E225.15566
G1 X138.607 Y104.153 E225.19116
G1 X137.016 Y104.812 E225.22665
G1 X135.342 Y105.214 E225.26214
G1 X133.614 Y105.350 E225.29786
G1 X55.475 Y105.350 E226.90833
G1 X55.650 Y104.917 F7800.000
G1 Z7.850 F7800.000
G1 X55.961 Y104.789 F7800.000
G1 F3600
G1 X55.961 Y104.211 E226.92394
G1 X133.658 Y104.211 E229.01994
G1 X135.164 Y104.092 E229.06070
G1 X136.665 Y103.732 E229.10235
G1 X138.091 Y103.141 E229.14399
G1 X139.408 Y102.334 E229.18564
G1 X140.582 Y101.332 E229.22729
G1 X141.584 Y100.158 E229.26893
G1 X142.391 Y98.841 E229.31058
G1 X142.982 Y97.415 E229.35222
G1 X143.342 Y95.914 E229.39387
G1 X143.397 Y95.211 E229.41291
G1 X143.971 Y95.211 E229.42838
G1 X143.909 Y96.004 E229.44984
G1 X143.527 Y97.592 E229.49392
G1 X142.902 Y99.102 E229.53799
G1 X142.048 Y100.495 E229.58206
G1 X140.987 Y101.737 E229.62614
G1 X139.745 Y102.798 E229.67021
G1 X138.352 Y103.652 E229.71429
G1 X136.842 Y104.277 E229.75836
G1 X135.254 Y104.659 E229.80244
G1 X133.592 Y104.789 E229.84740
G1 X56.036 Y104.789 E231.93960
G1 X55.400 Y105.350 F7800.000
G1 F3000
G1 X55.400 Y103.650 E231.97464
G1 X133.636 Y103.650 E233.58711
G1 X135.076 Y103.537 E233.61688
G1 X136.491 Y103.197 E233.64688
G1 X137.836 Y102.640 E233.67688
G1 X139.077 Y101.879 E233.70688
G1 X140.184 Y100.934 E233.73688
G1 X141.129 Y99.827 E233.76688
G1 X141.890 Y98.586 E233.79688
G1 X142.447 Y97.241 E233.82688
G1 X142.787 Y95.826 E233.85688
G1 X142.879 Y94.650 E233.88119
G1 X144.578 Y94.650 E233.91620
G1 X144.464 Y96.092 E233.94600
G1 X144.062 Y97.766 E233.98149
G1 X143.403 Y99.357 E234.01699
G1 X142.503 Y100.825 E234.05248
G1 X141.385 Y102.135 E234.08797
G1 X140.075 Y103.253 E234.12346
G1 X138.607 Y104.153 E234.15895
G1 X137.016 Y104.812 E234.19444
G1 X135.342 Y105.214 E234.22994
G1 X133.614 Y105.350 E234.26565
G1 X55.475 Y105.350 E235.87613
G1 X55.650 Y104.917 F7800.000
G1 Z8.150 F7800.000
G1 X55.961 Y104.789 F7800.000
G1 F3600
G1 X55.961 Y104.211 E235.89174
G1 X133.658 Y104.211 E237.98774
G1 X135.164 Y104.092 E238.02850
G1 X136.665 Y103.732 E238.07014
G1 X138.091 Y103.141 E238.11179
G1 X139.408 Y102.334 E238.15344
G1 X140.582 Y101.332 E238.19508
G1 X141.584 Y100.158 E238.23673
G1 X142.391 Y98.841 E238.27838
G1 X142.982 Y97.415 E238.32002
G1 X143.342 Y95.914 E238.36167
G1 X143.397 Y95.211 E238.38070
G1 X143.971 Y95.211 E238.39618
G1 X143.909 Y96.004 E238.41764
G1 X143.527 Y97.592 E238.46171
G1 X142.902 Y99.102 E238.50579
G1 X142.048 Y100.495 E238.54986
G1 X140.987 Y101.737 E238.59394
G1 X139.745 Y102.798 E238.63801
G1 X138.352 Y103.652 E238.68208
G1 X136.842 Y104.277 E238.72616
G1 X135.254 Y104.659 E238.77023
G1 X133.592 Y104.789 E238.81519
G1 X56.036 Y104.789 E240.90740
G1 X55.400 Y105.350 F7800.000
G1 F3000
G1 X55.400 Y103.650 E240.94244
G1 X133.636 Y103.650 E242.55490
G1 X135.076 Y103.537 E242.58468
G1 X136.491 Y103.197 E242.61468
G1 X137.836 Y102.640 E242.64468
G1 X139.077 Y101.879 E242.67468
G1 X140.184 Y100.934 E242.70468
G1 X141.129 Y99.827 E242.73468
G1 X141.890 Y98.586 E242.76468
G1 X142.447 Y97.241 E242.79468
G1 X142.787 Y95.826 E242.82468
G1 X142.879 Y94.650 E242.84899
G1 X144.578 Y94.650 E242.88399
G1 X144.464 Y96.092 E242.91380
G1 X144.062 Y97.766 E242.94929
G1 X143.403 Y99.357 E242.98478
G1 X142.503 Y100.825 E243.02027
G1 X141.385 Y102.135 E243.05577
G1 X140.075 Y103.253 E243.09126
G1 X138.607 Y104.153 E243.12675
G1 X137.016 Y104.812 E243.16224
G1 X135.342 Y105.214 E243.19773
G1 X133.614 Y105.350 E243.23345
G1 X55.475 Y105.350 E244.84392
G1 X55.650 Y104.917 F7800.000
G1 Z8.450 F7800.000
G1 X55.961 Y104.789 F7800.000
G1 F3600
G1 X55.961 Y104.211 E244.85954
G1 X133.658 Y104.211 E246.95554
G1 X135.164 Y104.092 E246.99630
G1 X136.665 Y103.732 E247.03794
G1 X138.091 Y103.141 E247.07959
G1 X139.408 Y102.334 E247.12123
G1 X140.582 Y101.332 E247.16288
G1 X141.584 Y100.158 E247.20453
G1 X142.391 Y98.841 E247.24617
G1 X142.982 Y97.415 E247.28782
G1 X143.342 Y95.914 E247.32946
G1 X143.397 Y95.211 E247.34850
G1 X143.971 Y95.211 E247.36397
G1 X143.909 Y96.004 E247.38543
G1 X143.527 Y97.592 E247.42951
G1 X142.902 Y99.102 E247.47358
G1 X142.048 Y100.495 E247.51766
G1 X140.987 Y101.737 E247.56173
G1 X139.745 Y102.798 E247.60581
G1 X138.352 Y103.652 E247.64988
G1 X136.842 Y104.277 E247.69395
G1 X135.254 Y104.659 E247.73803
G1 X133.592 Y104.789 E247.78299
G1 X56.036 Y104.789 E249.87520
G1 X55.400 Y105.350 F7800.000
G1 F3000
G1 X55.400 Y103.650 E249.91024
G1 X133.636 Y103.650 E251.52270
G1 X135.076 Y103.537 E251.55248
G1 X136.491 Y103.197 E251.58248
G1 X137.836 Y102.640 E251.61248
G1 X139.077 Y101.879 E251.64248
G1 X140.184 Y100.934 E251.67247
G1 X141.129 Y99.827 E251.70247
G1 X141.890 Y98.586 E251.73247
G1 X142.447 Y97.241 E251.76247
G1 X142.787 Y95.826 E251.79247
G1 X142.879 Y94.650 E251.81679
G1 X144.578 Y94.650 E251.85179
G1 X144.464 Y96.092 E251.88160
G1 X144.062 Y97.766 E251.91709
G1 X143.403 Y99.357 E251.95258
G1 X142.503 Y100.825 E251.98807
G1 X141.385 Y102.135 E252.02356
G1 X140.075 Y103.253 E252.05905
G1 X138.607 Y104.153 E252.09455
G1 X137.016 Y104.812 E252.13004
G1 X135.342 Y105.214 E252.16553
G1 X133.614 Y105.350 E252.20125
G1 X55.475 Y105.350 E253.81172
G1 X55.650 Y104.917 F7800.000
G1 Z8.750 F7800.000
G1 X55.961 Y104.789 F7800.000
G1 F3600
G1 X55.961 Y104.211 E253.82733
G1 X133.658 Y104.211 E255.92333
G1 X135.164 Y104.092 E255.96409
G1 X136.665 Y103.732 E256.00574
G1 X138.091 Y103.141 E256.04738
G1 X139.408 Y102.334 E256.08903
G1 X140.582 Y101.332 E256.13068
G1 X141.584 Y100.158 E256.17232
G1 X142.391 Y98.841 E256.21397
G1 X142.982 Y97.415 E256.25562
G1 X143.342 Y95.914 E256.29726
G1 X143.397 Y95.211 E256.31630
G1 X143.971 Y95.211 E256.33177
G1 X143.909 Y96.004 E256.35323
G1 X143.527 Y97.592 E256.39731
G1 X142.902 Y99.102 E256.44138
G1 X142.048 Y100.495 E256.48545
G1 X140.987 Y101.737 E256.52953
G1 X139.745 Y102.798 E256.57360
G1 X138.352 Y103.652 E256.61768
G1 X136.842 Y104.277 E256.66175
G1 X135.254 Y104.659 E256.70583
G1 X133.592 Y104.789 E256.75079
G1 X56.036 Y104.789 E258.84299
G1 X55.400 Y105.350 F7800.000
G1 F3000
G1 X55.400 Y103.650 E258.87803
G1 X133.636 Y103.650 E260.49050
G1 X135.076 Y103.537 E260.52027
G1 X136.491 Y103.197 E260.55027
G1 X137.836 Y102.640 E260.58027
G1 X139.077 Y101.879 E260.61027
G1 X140.184 Y100.934 E260.64027
G1 X141.129 Y99.827 E260.67027
G1 X141.890 Y98.586 E260.70027
G1 X142.447 Y97.241 E260.73027
G1 X142.787 Y95.826 E260.76027
G1 X142.879 Y94.650 E260.78458
G1 X144.578 Y94.650 E260.81959
G1 X144.464 Y96.092 E260.84939
G1 X144.062 Y97.766 E260.88488
G1 X143.403 Y99.357 E260.92038
G1 X142.503 Y100.825 E260.95587
G1 X141.385 Y102.135 E260.99136
G1 X140.075 Y103.253 E261.02685
G1 X138.607 Y104.153 E261.06234
G1 X137.016 Y104.812 E261.09783
G1 X135.342 Y105.214 E261.13333
G1 X133.614 Y105.350 E261.16904
G1 X55.475 Y105.350 E262.77952
G1 X55.650 Y104.917 F7800.000
G1 Z9.050 F7800.000
G1 X55.961 Y104.789 F7800.000
G1 F3600
G1 X55.961 Y104.211 E262.79513
G1 X133.658 Y104.211 E264.89113
G1 X135.164 Y104.092 E264.93189
G1 X136.665 Y103.732 E264.97353
G1 X138.091 Y103.141 E265.01518
G1 X139.408 Y102.334 E265.05683
G1 X140.582 Y101.332 E265.09847
G1 X141.584 Y100.158 E265.14012
G1 X142.391 Y98.841 E265.18177
G1 X142.982 Y97.415 E265.22341
G1 X143.342 Y95.914 E265.26506
G1 X143.397 Y95.211 E265.28409
G1 X143.971 Y95.211 E265.29957
G1 X143.909 Y96.004 E265.32103
G1 X143.527 Y97.592 E265.36510
G1 X142.902 Y99.102 E265.40918
G1 X142.048 Y100.495 E265.45325
G1 X140.987 Y101.737 E265.49733
G1 X139.745 Y102.798 E265.54140
G1 X138.352 Y103.652 E265.58547
G1 X136.842 Y104.277 E265.62955
G1 X135.254 Y104.659 E265.67362
G1 X133.592 Y104.789 E265.71858
G1 X56.036 Y104.789 E267.81079
G1 X55.400 Y105.350 F7800.000
G1 F3000
G1 X55.400 Y103.650 E267.84583
G1 X133.636 Y103.650 E269.45829
G1 X135.076 Y103.537 E269.48807
G1 X136.491 Y103.197 E269.51807
G1 X137.836 Y102.640 E269.54807
G1 X139.077 Y101.879 E269.57807
G1 X140.184 Y100.934 E269.60807
G1 X141.129 Y99.827 E269.63807
G1 X141.890 Y98.586 E269.66807
G1 X142.447 Y97.241 E269.69807
G1 X142.787 Y95.826 E269.72807
G1 X142.879 Y94.650 E269.75238
G1 X144.578 Y94.650 E269.78738
G1 X144.464 Y96.092 E269.81719
G1 X144.062 Y97.766 E269.85268
G1 X143.403 Y99.357 E269.88817
G1 X142.503 Y100.825 E269.92366
G1 X141.385 Y102.135 E269.95916
G1 X140.075 Y103.253 E269.99465
G1 X138.607 Y104.153 E270.03014
G1 X137.016 Y104.812 E270.06563
G1 X135.342 Y105.214 E270.10112
G1 X133.614 Y105.350 E270.13684
G1 X55.475 Y105.350 E271.74731
G1 X55.650 Y104.917 F7800.000
G1 Z9.350 F7800.000
G1 X55.961 Y104.789 F7800.000
G1 F3600
G1 X55.961 Y104.211 E271.76293
G1 X133.658 Y104.211 E273.85893
G1 X135.164 Y104.092 E273.89969
G1 X136.665 Y103.732 E273.94133
G1 X138.091 Y103.141 E273.98298
G1 X139.408 Y102.334 E274.02462
G1 X140.582 Y101.332 E274.06627
G1 X141.584 Y100.158 E274.10792
G1 X142.391 Y98.841 E274.14956
G1 X142.982 Y97.415 E274.19121
G1 X143.342 Y95.914 E274.23285
G1 X143.397 Y95.211 E274.25189
G1 X143.971 Y95.211 E274.26736
G1 X143.909 Y96.004 E274.28882
G1 X143.527 Y97.592 E274.33290
G1 X142.902 Y99.102 E274.37697
G1 X142.048 Y100.495 E274.42105
G1 X140.987 Y101.737 E274.46512
G1 X139.745 Y102.798 E274.50920
G1 X138.352 Y103.652 E274.55327
G1 X136.842 Y104.277 E274.59734
G1 X135.254 Y104.659 E274.64142
G1 X133.592 Y104.789 E274.68638
G1 X56.036 Y104.789 E276.77859
G1 X55.400 Y105.350 F7800.000
G1 F3000
G1 X55.400 Y103.650 E276.81363
G1 X133.636 Y103.650 E278.42609
G1 X135.076 Y103.537 E278.45587
G1 X136.491 Y103.197 E278.48587
G1 X137.836 Y102.640 E278.51587
G1 X139.077 Y101.879 E278.54587
G1 X140.184 Y100.934 E278.57586
G1 X141.129 Y99.827 E278.60586
G1 X141.890 Y98.586 E278.63586
G1 X142.447 Y97.241 E278.66586
G1 X142.787 Y95.826 E278.69586
G1 X142.879 Y94.650 E278.72018
G1 X144.578 Y94.650 E278.75518
G1 X144.464 Y96.092 E278.78499
G1 X144.062 Y97.766 E278.82048
G1 X143.403 Y99.357 E278.85597
G1 X142.503 Y100.825 E278.89146
G1 X141.385 Y102.135 E278.92695
G1 X140.075 Y103.253 E278.96244
G1 X138.607 Y104.153 E278.99794
G1 X137.016 Y104.812 E279.03343
G1 X135.342 Y105.214 E279.06892
G1 X133.614 Y105.350 E279.10464
G1 X55.475 Y105.350 E280.71511
G1 X55.650 Y104.917 F7800.000
G1 Z9.650 F7800.000
G1 X55.961 Y104.789 F7800.000
G1 F3600
G1 X55.961 Y104.211 E280.73072
G1 X133.658 Y104.211 E282.82672
G1 X135.164 Y104.092 E282.86748
G1 X136.665 Y103.732 E282.90913
G1 X138.091 Y103.141 E282.95077
G1 X139.408 Y102.334 E282.99242
G1 X140.582 Y101.332 E283.03407
G1 X141.584 Y100.158 E283.07571
G1 X142.391 Y98.841 E283.11736
G1 X142.982 Y97.415 E283.15901
G1 X143.342 Y95.914 E283.20065
G1 X143.397 Y95.211 E283.21969
G1 X143.971 Y95.211 E283.23516
G1 X143.909 Y96.004 E283.25662
G1 X143.527 Y97.592 E283.30070
G1 X142.902 Y99.102 E283.34477
G1 X142.048 Y100.495 E283.38884
G1 X140.987 Y101.737 E283.43292
G1 X139.745 Y102.798 E283.47699
G1 X138.352 Y103.652 E283.52107
G1 X136.842 Y104.277 E283.56514
G1 X135.254 Y104.659 E283.60922
G1 X133.592 Y104.789 E283.65418
G1 X56.036 Y104.789 E285.74638
G1 X55.400 Y105.350 F7800.000
G1 F3000
G1 X55.400 Y103.650 E285.78142
G1 X133.636 Y103.650 E287.39389
G1 X135.076 Y103.537 E287.42366
G1 X136.491 Y103.197 E287.45366
G1 X137.836 Y102.640 E287.48366
G1 X139.077 Y101.879 E287.51366
G1 X140.184 Y100.934 E287.54366
G1 X141.129 Y99.827 E287.57366
G1 X141.890 Y98.586 E287.60366
G1 X142.447 Y97.241 E287.63366
G1 X142.787 Y95.826 E287.66366
G1 X142.879 Y94.650 E287.68797
G1 X144.578 Y94.650 E287.72298
G1 X144.464 Y96.092 E287.75278
G1 X144.062 Y97.766 E287.78827
G1 X143.403 Y99.357 E287.82377
G1 X142.503 Y100.825 E287.85926
G1 X141.385 Y102.135 E287.89475
G1 X140.075 Y103.253 E287.93024
G1 X138.607 Y104.153 E287.96573
G1 X137.016 Y104.812 E288.00123
G1 X135.342 Y105.214 E288.03672
G1 X133.614 Y105.350 E288.07243
G1 X55.475 Y105.350 E289.68291
G1 X55.650 Y104.917 F7800.000
G1 Z9.950 F7800.000
G1 X55.961 Y104.789 F7800.000
G1 F3600
G1 X55.961 Y104.211 E289.69852
G1 X133.658 Y104.211 E291.79452
G1 X135.164 Y104.092 E291.83528
G1 X136.665 Y103.732 E291.87692
G1 X138.091 Y103.141 E291.91857
G1 X139.408 Y102.334 E291.96022
G1 X140.582 Y101.332 E292.00186
G1 X141.584 Y100.158 E292.04351
G1 X142.391 Y98.841 E292.08516
G1 X142.982 Y97.415 E292.12680
G1 X143.342 Y95.914 E292.16845
G1 X143.397 Y95.211 E292.18748
G1 X143.971 Y95.211 E292.20296
G1 X143.909 Y96.004 E292.22442
G1 X143.527 Y97.592 E292.26849
G1 X142.902 Y99.102 E292.31257
G1 X142.048 Y100.495 E292.35664
G1 X140.987 Y101.737 E292.40072
G1 X139.745 Y102.798 E292.44479
G1 X138.352 Y103.652 E292.48886
G1 X136.842 Y104.277 E292.53294
G1 X135.254 Y104.659 E292.57701
G1 X133.592 Y104.789 E292.62197
G1 X56.036 Y104.789 E294.71418
G1 X55.400 Y105.350 F7800.000
G1 F3000
G1 X55.400 Y103.650 E294.74922
G1 X133.636 Y103.650 E296.36168
G1 X135.076 Y103.537 E296.39146
G1 X136.491 Y103.197 E296.42146
G1 X137.836 Y102.640 E296.45146
G1 X139.077 Y101.879 E296.48146
G1 X140.184 Y100.934 E296.51146
G1 X141.129 Y99.827 E296.54146
G1 X141.890 Y98.586 E296.57146
G1 X142.447 Y97.241 E296.60146
G1 X142.787 Y95.826 E296.63146
G1 X142.879 Y94.650 E296.65577
G1 X144.578 Y94.650 E296.69077
G1 X144.464 Y96.092 E296.72058
G1 X144.062 Y97.766 E296.75607
G1 X143.403 Y99.357 E296.79156
G1 X142.503 Y100.825 E296.82705
G1 X141.385 Y102.135 E296.86255
G1 X140.075 Y103.253 E296.89804
G1 X138.607 Y104.153 E296.93353
G1 X137.016 Y104.812 E296.96902
G1 X135.342 Y105.214 E297.00451
G1 X133.614 Y105.350 E297.04023
G1 X55.475 Y105.350 E298.65070
G1 X55.650 Y104.917 F7800.000
G1 Z10.250 F7800.000
G1 X55.961 Y104.789 F7800.000
G1 F3600
G1 X55.961 Y104.211 E298.66632
G1 X133.658 Y104.211 E300.76232
G1 X135.164 Y104.092 E300.80308
G1 X136.665 Y103.732 E300.84472
G1 X138.091 Y103.141 E300.88637
G1 X139.408 Y102.334 E300.92801
G1 X140.582 Y101.332 E300.96966
G1 X141.584 Y100.158 E301.01131
G1 X142.391 Y98.841 E301.05295
G1 X142.982 Y97.415 E301.09460
G1 X143.342 Y95.914 E301.13624
G1 X143.397 Y95.211 E301.15528
G1 X143.971 Y95.211 E301.17075
G1 X143.909 Y96.004 E301.19221
G1 X143.527 Y97.592 E301.23629
G1 X142.902 Y99.102 E301.28036
G1 X142.048 Y100.495 E301.32444
G1 X140.987 Y101.737 E301.36851
G1 X139.745 Y102.798 E301.41259
G1 X138.352 Y103.652 E301.45666
G1 X136.842 Y104.277 E301.50073
G1 X135.254 Y104.659 E301.54481
G1 X133.592 Y104.789 E301.58977
G1 X56.036 Y104.789 E303.68198
G1 X55.400 Y105.350 F7800.000
G1 F3000
G1 X55.400 Y103.650 E303.71702
G1 X133.636 Y103.650 E305.32948
G1 X135.076 Y103.537 E305.35926
G1 X136.491 Y103.197 E305.38926
G1 X137.836 Y102.640 E305.41926
G1 X139.077 Y101.879 E305.44926
G1 X140.184 Y100.934 E305.47925
G1 X141.129 Y99.827 E305.50925
G1 X141.890 Y98.586 E305.53925
G1 X142.447 Y97.241 E305.56925
G1 X142.787 Y95.826 E305.59925
G1 X142.879 Y94.650 E305.62357
G1 X144.578 Y94.650 E305.65857
G1 X144.464 Y96.092 E305.68838
G1 X144.062 Y97.766 E305.72387
G1 X143.403 Y99.357 E305.75936
G1 X142.503 Y100.825 E305.79485
G1 X141.385 Y102.135 E305.83034
G1 X140.075 Y103.253 E305.86583
G1 X138.607 Y104.153 E305.90133
G1 X137.016 Y104.812 E305.93682
G1 X135.342 Y105.214 E305.97231
G1 X133.614 Y105.350 E306.00803
G1 X55.475 Y105.350 E307.61850
G1 X55.650 Y104.917 F7800.000
G1 Z10.550 F7800.000
G1 X55.961 Y104.789 F7800.000
G1 F3600
G1 X55.961 Y104.211 E307.63411
G1 X133.658 Y104.211 E309.73011
G1 X135.164 Y104.092 E309.77087
G1 X136.665 Y103.732 E309.81252
G1 X138.091 Y103.141 E309.85416
G1 X139.408 Y102.334 E309.89581
G1 X140.582 Y101.332 E309.93746
G1 X141.584 Y100.158 E309.97910
G1 X142.391 Y98.841 E310.02075
G1 X142.982 Y97.415 E310.06240
G1 X143.342 Y95.914 E310.10404
G1 X143.397 Y95.211 E310.12308
G1 X143.971 Y95.211 E310.13855
G1 X143.909 Y96.004 E310.16001
G1 X143.527 Y97.592 E310.20409
G1 X142.902 Y99.102 E310.24816
G1 X142.048 Y100.495 E310.29223
G1 X140.987 Y101.737 E310.33631
G1 X139.745 Y102.798 E310.38038
G1 X138.352 Y103.652 E310.42446
G1 X136.842 Y104.277 E310.46853
G1 X135.254 Y104.659 E310.51261
G1 X133.592 Y104.789 E310.55757
G1 X56.036 Y104.789 E312.64977
G1 X55.400 Y105.350 F7800.000
G1 F3000
G1 X55.400 Y103.650 E312.68481
G1 X133.636 Y103.650 E314.29728
G1 X135.076 Y103.537 E314.32705
G1 X136.491 Y103.197 E314.35705
G1 X137.836 Y102.640 E314.38705
G1 X139.077 Y101.879 E314.41705
G1 X140.184 Y100.934 E314.44705
G1 X141.129 Y99.827 E314.47705
G1 X141.890 Y98.586 E314.50705
G1 X142.447 Y97.241 E314.53705
G1 X142.787 Y95.826 E314.56705
G1 X142.879 Y94.650 E314.59136
G1 X144.578 Y94.650 E314.62637
G1 X144.464 Y96.092 E314.65617
G1 X144.062 Y97.766 E314.69166
G1 X143.403 Y99.357 E314.72716
G1 X142.503 Y100.825 E314.76265
G1 X141.385 Y102.135 E314.79814
G1 X140.075 Y103.253 E314.83363
G1 X138.607 Y104.153 E314.86912
G1 X137.016 Y104.812 E314.90461
G1 X135.342 Y105.214 E314.94011
G1 X133.614 Y105.350 E314.97582
G1 X55.475 Y105.350 E316.58630
G1 X55.650 Y104.917 F7800.000
G1 Z10.850 F7800.000
G1 X55.961 Y104.789 F7800.000
G1 F3600
G1 X55.961 Y104.211 E316.60191
G1 X133.658 Y104.211 E318.69791
G1 X135.164 Y104.092 E318.73867
G1 X136.665 Y103.732 E318.78031
G1 X138.091 Y103.141 E318.82196
G1 X139.408 Y102.334 E318.86361
G1 X140.582 Y101.332 E318.90525
G1 X141.584 Y100.158 E318.94690
G1 X142.391 Y98.841 E318.98855
G1 X142.982 Y97.415 E319.03019
G1 X143.342 Y95.914 E319.07184
G1 X143.397 Y95.211 E319.09087
G1 X143.971 Y95.211 E319.10635
G1 X143.909 Y96.004 E319.12781
G1 X143.527 Y97.592 E319.17188
G1 X142.902 Y99.102 E319.21596
G1 X142.048 Y100.495 E319.26003
G1 X140.987 Y101.737 E319.30411
G1 X139.745 Y102.798 E319.34818
G1 X138.352 Y103.652 E319.39225
G1 X136.842 Y104.277 E319.43633
G1 X135.254 Y104.659 E319.48040
G1 X133.592 Y104.789 E319.52536
G1 X56.036 Y104.789 E321.61757
G1 X55.400 Y105.350 F7800.000
G1 F3000
G1 X55.400 Y103.650 E321.65261
G1 X133.636 Y103.650 E323.26507
G1 X135.076 Y103.537 E323.29485
G1 X136.491 Y103.197 E323.32485
G1 X137.836 Y102.640 E323.35485
G1 X139.077 Y101.879 E323.38485
G1 X140.184 Y100.934 E323.41485
G1 X141.129 Y99.827 E323.44485
G1 X141.890 Y98.586 E323.47485
G1 X142.447 Y97.241 E323.50485
G1 X142.787 Y95.826 E323.53485
G1 X142.879 Y94.650 E323.55916
G1 X144.578 Y94.650 E323.59416
G1 X144.464 Y96.092 E323.62397
G1 X144.062 Y97.766 E323.65946
G1 X143.403 Y99.357 E323.69495
G1 X142.503 Y100.825 E323.73044
G1 X141.385 Y102.135 E323.76594
G1 X140.075 Y103.253 E323.80143
G1 X138.607 Y104.153 E323.83692
G1 X137.016 Y104.812 E323.87241
G1 X135.342 Y105.214 E323.90790
G1 X133.614 Y105.350 E323.94362
G1 X55.475 Y105.350 E325.55409
G1 X55.650 Y104.917 F7800.000
G1 Z11.150 F7800.000
G1 X55.961 Y104.789 F7800.000
G1 F3600
G1 X55.961 Y104.211 E325.56971
G1 X133.658 Y104.211 E327.66571
G1 X135.164 Y104.092 E327.70647
G1 X136.665 Y103.732 E327.74811
G1 X138.091 Y103.141 E327.78976
G1 X139.408 Y102.334 E327.83140
G1 X140.582 Y101.332 E327.87305
G1 X141.584 Y100.158 E327.91470
G1 X142.391 Y98.841 E327.95634
G1 X142.982 Y97.415 E327.99799
G1 X143.342 Y95.914 E328.03963
G1 X143.397 Y95.211 E328.05867
G1 X143.971 Y95.211 E328.07414
G1 X143.909 Y96.004 E328.09560
G1 X143.527 Y97.592 E328.13968
G1 X142.902 Y99.102 E328.18375
G1 X142.048 Y100.495 E328.22783
G1 X140.987 Y101.737 E328.27190
G1 X139.745 Y102.798 E328.31598
G1 X138.352 Y103.652 E328.36005
G1 X136.842 Y104.277 E328.40412
G1 X135.254 Y104.659 E328.44820
G1 X133.592 Y104.789 E328.49316
G1 X56.036 Y104.789 E330.58537
G1 X55.400 Y105.350 F7800.000
G1 F3000
G1 X55.400 Y103.650 E330.62041
G1 X133.636 Y103.650 E332.23287
G1 X135.076 Y103.537 E332.26265
G1 X136.491 Y103.197 E332.29265
G1 X137.836 Y102.640 E332.32265
G1 X139.077 Y101.879 E332.35265
G1 X140.184 Y100.934 E332.38264
G1 X141.129 Y99.827 E332.41264
G1 X141.890 Y98.586 E332.44264
G1 X142.447 Y97.241 E332.47264
G1 X142.787 Y95.826 E332.50264
G1 X142.879 Y94.650 E332.52696
G1 X144.578 Y94.650 E332.56196
G1 X144.464 Y96.092 E332.59177
G1 X144.062 Y97.766 E332.62726
G1 X143.403 Y99.357 E332.66275
G1 X142.503 Y100.825 E332.69824
G1 X141.385 Y102.135 E332.73373
G1 X140.075 Y103.253 E332.76922
G1 X138.607 Y104.153 E332.80472
G1 X137.016 Y104.812 E332.84021
G1 X135.342 Y105.214 E332.87570
G1 X133.614 Y105.350 E332.91142
G1 X55.475 Y105.350 E334.52189
G1 X55.650 Y104.917 F7800.000
G1 Z11.450 F7800.000
G1 X55.961 Y104.789 F7800.000
G1 F3600
G1 X55.961 Y104.211 E334.53750
G1 X133.658 Y104.211 E336.63350
G1 X135.164 Y104.092 E336.67426
G1 X136.665 Y103.732 E336.71591
G1 X138.091 Y103.141 E336.75755
G1 X139.408 Y102.334 E336.79920
G1 X140.582 Y101.332 E336.84085
G1 X141.584 Y100.158 E336.88249
G1 X142.391 Y98.841 E336.92414
G1 X142.982 Y97.415 E336.96579
G1 X143.342 Y95.914 E337.00743
G1 X143.397 Y95.211 E337.02647
G1 X143.971 Y95.211 E337.04194
G1 X143.909 Y96.004 E337.06340
G1 X143.527 Y97.592 E337.10748
G1 X142.902 Y99.102 E337.15155
G1 X142.048 Y100.495 E337.19562
G1 X140.987 Y101.737 E337.23970
G1 X139.745 Y102.798 E337.28377
G1 X138.352 Y103.652 E337.32785
G1 X136.842 Y104.277 E337.37192
G1 X135.254 Y104.659 E337.41600
G1 X133.592 Y104.789 E337.46096
G1 X56.036 Y104.789 E339.55316
G1 X55.400 Y105.350 F7800.000
G1 F3000
G1 X55.400 Y103.650 E339.58820
G1 X133.636 Y103.650 E341.20067
G1 X135.076 Y103.537 E341.23044
G1 X136.491 Y103.197 E341.26044
G1 X137.836 Y102.640 E341.29044
G1 X139.077 Y101.879 E341.32044
G1 X140.184 Y100.934 E341.35044
G1 X141.129 Y99.827 E341.38044
G1 X141.890 Y98.586 E341.41044
G1 X142.447 Y97.241 E341.44044
G1 X142.787 Y95.826 E341.47044
G1 X142.879 Y94.650 E341.49475
G1 X144.578 Y94.650 E341.52976
G1 X144.464 Y96.092 E341.55956
G1 X144.062 Y97.766 E341.59505
G1 X143.403 Y99.357 E341.63055
G1 X142.503 Y100.825 E341.66604
G1 X141.385 Y102.135 E341.70153
G1 X140.075 Y103.253 E341.73702
G1 X138.607 Y104.153 E341.77251
G1 X137.016 Y104.812 E341.80801
G1 X135.342 Y105.214 E341.84350
G1 X133.614 Y105.350 E341.87921
G1 X55.475 Y105.350 E343.48969
G1 X55.650 Y104.917 F7800.000
G1 Z11.750 F7800.000
G1 X55.961 Y104.789 F7800.000
G1 F3600
G1 X55.961 Y104.211 E343.50530
G1 X133.658 Y104.211 E345.60130
G1 X135.164 Y104.092 E345.64206
G1 X136.665 Y103.732 E345.68370
G1 X138.091 Y103.141 E345.72535
G1 X139.408 Y102.334 E345.76700
G1 X140.582 Y101.332 E345.80864
G1 X141.584 Y100.158 E345.85029
G1 X142.391 Y98.841 E345.89194
G1 X142.982 Y97.415 E345.93358
G1 X143.342 Y95.914 E345.97523
G1 X143.397 Y95.211 E345.99426
G1 X143.971 Y95.211 E346.00974
G1 X143.909 Y96.004 E346.03120
G1 X143.527 Y97.592 E346.07527
G1 X142.902 Y99.102 E346.11935
G1 X142.048 Y100.495 E346.16342
G1 X140.987 Y101.737 E346.20750
G1 X139.745 Y102.798 E346.25157
G1 X138.352 Y103.652 E346.29564
G1 X136.842 Y104.277 E346.33972
G1 X135.254 Y104.659 E346.38379
G1 X133.592 Y104.789 E346.42876
G1 X56.036 Y104.789 E348.52096
G1 X55.400 Y105.350 F7800.000
G1 F3000
G1 X55.400 Y103.650 E348.55600
G1 X133.636 Y103.650 E350.16846
G1 X135.076 Y103.537 E350.19824
G1 X136.491 Y103.197 E350.22824
G1 X137.836 Y102.640 E350.25824
G1 X139.077 Y101.879 E350.28824
G1 X140.184 Y100.934 E350.31824
G1 X141.129 Y99.827 E350.34824
G1 X141.890 Y98.586 E350.37824
G1 X142.447 Y97.241 E350.40824
G1 X142.787 Y95.826 E350.43824
G1 X142.879 Y94.650 E350.46255
G1 X144.578 Y94.650 E350.49755
G1 X144.464 Y96.092 E350.52736
G1 X144.062 Y97.766 E350.56285
G1 X143.403 Y99.357 E350.59834
G1 X142.503 Y100.825 E350.63383
G1 X141.385 Y102.135 E350.66933
G1 X140.075 Y103.253 E350.70482
G1 X138.607 Y104.153 E350.74031
G1 X137.016 Y104.812 E350.77580
G1 X135.342 Y105.214 E350.81129
G1 X133.614 Y105.350 E350.84701
G1 X55.475 Y105.350 E352.45748
G1 X55.650 Y104.917 F7800.000
G1 Z12.050 F7800.000
G1 X55.961 Y104.789 F7800.000
G1 F3600
G1 X55.961 Y104.211 E352.47310
G1 X133.658 Y104.211 E354.56910
G1 X135.164 Y104.092 E354.60986
G1 X136.665 Y103.732 E354.65150
G1 X138.091 Y103.141 E354.69315
G1 X139.408 Y102.334 E354.73479
G1 X140.582 Y101.332 E354.77644
G1 X141.584 Y100.158 E354.81809
G1 X142.391 Y98.841 E354.85973
G1 X142.982 Y97.415 E354.90138
G1 X143.342 Y95.914 E354.94302
G1 X143.397 Y95.211 E354.96206
G1 X143.971 Y95.211 E354.97753
G1 X143.909 Y96.004 E354.99900
G1 X143.527 Y97.592 E355.04307
G1 X142.902 Y99.102 E355.08714
G1 X142.048 Y100.495 E355.13122
G1 X140.987 Y101.737 E355.17529
G1 X139.745 Y102.798 E355.21937
G1 X138.352 Y103.652 E355.26344
G1 X136.842 Y104.277 E355.30752
G1 X135.254 Y104.659 E355.35159
G1 X133.592 Y104.789 E355.39655
G1 X56.036 Y104.789 E357.48876
G1 X55.400 Y105.350 F7800.000
G1 F3000
G1 X55.400 Y103.650 E357.52380
G1 X133.636 Y103.650 E359.13626
G1 X135.076 Y103.537 E359.16604
G1 X136.491 Y103.197 E359.19604
G1 X137.836 Y102.640 E359.22604
G1 X139.077 Y101.879 E359.25604
G1 X140.184 Y100.934 E359.28604
G1 X141.129 Y99.827 E359.31603
G1 X141.890 Y98.586 E359.34603
G1 X142.447 Y97.241 E359.37603
G1 X142.787 Y95.826 E359.40603
G1 X142.879 Y94.650 E359.43035
G1 X144.578 Y94.650 E359.46535
G1 X144.464 Y96.092 E359.49516
G1 X144.062 Y97.766 E359.53065
G1 X143.403 Y99.357 E359.56614
G1 X142.503 Y100.825 E359.60163
G1 X141.385 Y102.135 E359.63712
G1 X140.075 Y103.253 E359.67261
G1 X138.607 Y104.153 E359.70811
G1 X137.016 Y104.812 E359.74360
G1 X135.342 Y105.214 E359.77909
G1 X133.614 Y105.350 E359.81481
G1 X55.475 Y105.350 E361.42528
G1 X55.650 Y104.917 F7800.000
G1 Z12.350 F7800.000
G1 X55.961 Y104.789 F7800.000
G1 F3600
G1 X55.961 Y104.211 E361.44089
G1 X133.658 Y104.211 E363.53689
G1 X135.164 Y104.092 E363.57765
G1 X136.665 Y103.732 E363.61930
G1 X138.091 Y103.141 E363.66094
G1 X139.408 Y102.334 E363.70259
G1 X140.582 Y101.332 E363.74424
G1 X141.584 Y100.158 E363.78588
G1 X142.391 Y98.841 E363.82753
G1 X142.982 Y97.415 E363.86918
G1 X143.342 Y95.914 E363.91082
G1 X143.397 Y95.211 E363.92986
G1 X143.971 Y95.211 E363.94533
G1 X143.909 Y96.004 E363.96679
G1 X143.527 Y97.592 E364.01087
G1 X142.902 Y99.102 E364.05494
G1 X142.048 Y100.495 E364.09901
G1 X140.987 Y101.737 E364.14309
G1 X139.745 Y102.798 E364.18716
G1 X138.352 Y103.652 E364.23124
G1 X136.842 Y104.277 E364.27531
G1 X135.254 Y104.659 E364.31939
G1 X133.592 Y104.789 E364.36435
G1 X56.036 Y104.789 E366.45656
G1 X55.400 Y105.350 F7800.000
G1 F3000
G1 X55.400 Y103.650 E366.49159
G1 X133.636 Y103.650 E368.10406
G1 X135.076 Y103.537 E368.13383
G1 X136.491 Y103.197 E368.16383
G1 X137.836 Y102.640 E368.19383
G1 X139.077 Y101.879 E368.22383
G1 X140.184 Y100.934 E368.25383
G1 X141.129 Y99.827 E368.28383
G1 X141.890 Y98.586 E368.31383
G1 X142.447 Y97.241 E368.34383
G1 X142.787 Y95.826 E368.37383
G1 X142.879 Y94.650 E368.39814
G1 X144.578 Y94.650 E368.43315
G1 X144.464 Y96.092 E368.46295
G1 X144.062 Y97.766 E368.49844
G1 X143.403 Y99.357 E368.53394
G1 X142.503 Y100.825 E368.56943
G1 X141.385 Y102.135 E368.60492
G1 X140.075 Y103.253 E368.64041
G1 X138.607 Y104.153 E368.67590
G1 X137.016 Y104.812 E368.71140
G1 X135.342 Y105.214 E368.74689
G1 X133.614 Y105.350 E368.78260
G1 X55.475 Y105.350 E370.39308
G1 X55.650 Y104.917 F7800.000
G1 Z12.650 F7800.000
G1 X55.961 Y104.789 F7800.000
G1 F3600
G1 X55.961 Y104.211 E370.40869
G1 X133.658 Y104.211 E372.50469
G1 X135.164 Y104.092 E372.54545
G1 X136.665 Y103.732 E372.58710
G1 X138.091 Y103.141 E372.62874
G1 X139.408 Y102.334 E372.67039
G1 X140.582 Y101.332 E372.71203
G1 X141.584 Y100.158 E372.75368
G1 X142.391 Y98.841 E372.79533
G1 X142.982 Y97.415 E372.83697
G1 X143.342 Y95.914 E372.87862
G1 X143.397 Y95.211 E372.89765
G1 X143.971 Y95.211 E372.91313
G1 X143.909 Y96.004 E372.93459
G1 X143.527 Y97.592 E372.97866
G1 X142.902 Y99.102 E373.02274
G1 X142.048 Y100.495 E373.06681
G1 X140.987 Y101.737 E373.11089
G1 X139.745 Y102.798 E373.15496
G1 X138.352 Y103.652 E373.19903
G1 X136.842 Y104.277 E373.24311
G1 X135.254 Y104.659 E373.28718
G1 X133.592 Y104.789 E373.33215
G1 X56.036 Y104.789 E375.42435
G1 X55.400 Y105.350 F7800.000
G1 F3000
G1 X55.400 Y103.650 E375.45939
G1 X133.636 Y103.650 E377.07186
G1 X135.076 Y103.537 E377.10163
G1 X136.491 Y103.197 E377.13163
G1 X137.836 Y102.640 E377.16163
G1 X139.077 Y101.879 E377.19163
G1 X140.184 Y100.934 E377.22163
G1 X141.129 Y99.827 E377.25163
G1 X141.890 Y98.586 E377.28163
G1 X142.447 Y97.241 E377.31163
G1 X142.787 Y95.826 E377.34163
G1 X142.879 Y94.650 E377.36594
G1 X144.578 Y94.650 E377.40094
G1 X144.464 Y96.092 E377.43075
G1 X144.062 Y97.766 E377.46624
G1 X143.403 Y99.357 E377.50173
G1 X142.503 Y100.825 E377.53722
G1 X141.385 Y102.135 E377.57272
G1 X140.075 Y103.253 E377.60821
G1 X138.607 Y104.153 E377.64370
G1 X137.016 Y104.812 E377.67919
G1 X135.342 Y105.214 E377.71468
G1 X133.614 Y105.350 E377.75040
G1 X55.475 Y105.350 E379.36087
G1 X55.650 Y104.917 F7800.000
G1 Z12.950 F7800.000
G1 X55.961 Y104.789 F7800.000
G1 F3600
G1 X55.961 Y104.211 E379.37649
G1 X133.658 Y104.211 E381.47249
G1 X135.164 Y104.092 E381.51325
G1 X136.665 Y103.732 E381.55489
G1 X138.091 Y103.141 E381.59654
G1 X139.408 Y102.334 E381.63818
G1 X140.582 Y101.332 E381.67983
G1 X141.584 Y100.158 E381.72148
G1 X142.391 Y98.841 E381.76312
G1 X142.982 Y97.415 E381.80477
G1 X143.342 Y95.914 E381.84642
G1 X143.397 Y95.211 E381.86545
G1 X143.971 Y95.211 E381.88092
G1 X143.909 Y96.004 E381.90239
G1 X143.527 Y97.592 E381.94646
G1 X142.902 Y99.102 E381.99053
G1 X142.048 Y100.495 E382.03461
G1 X140.987 Y101.737 E382.07868
G1 X139.745 Y102.798 E382.12276
G1 X138.352 Y103.652 E382.16683
G1 X136.842 Y104.277 E382.21091
G1 X135.254 Y104.659 E382.25498
G1 X133.592 Y104.789 E382.29994
G1 X56.036 Y104.789 E384.39215
G1 X55.400 Y105.350 F7800.000
G1 F3000
G1 X55.400 Y103.650 E384.42719
G1 X133.636 Y103.650 E386.03965
G1 X135.076 Y103.537 E386.06943
G1 X136.491 Y103.197 E386.09943
G1 X137.836 Y102.640 E386.12943
G1 X139.077 Y101.879 E386.15943
G1 X140.184 Y100.934 E386.18943
G1 X141.129 Y99.827 E386.21942
G1 X141.890 Y98.586 E386.24942
G1 X142.447 Y97.241 E386.27942
G1 X142.787 Y95.826 E386.30942
G1 X142.879 Y94.650 E386.33374
G1 X144.578 Y94.650 E386.36874
G1 X144.464 Y96.092 E386.39855
G1 X144.062 Y97.766 E386.43404
G1 X143.403 Y99.357 E386.46953
G1 X142.503 Y100.825 E386.50502
G1 X141.385 Y102.135 E386.54051
G1 X140.075 Y103.253 E386.57601
G1 X138.607 Y104.153 E386.61150
G1 X137.016 Y104.812 E386.64699
G1 X135.342 Y105.214 E386.68248
G1 X133.614 Y105.350 E386.71820
G1 X55.475 Y105.350 E388.32867
G1 X55.650 Y104.917 F7800.000
G1 Z13.250 F7800.000
G1 X55.961 Y104.789 F7800.000
G1 F3600
G1 X55.961 Y104.211 E388.34428
G1 X133.658 Y104.211 E390.44028
G1 X135.164 Y104.092 E390.48104
G1 X136.665 Y103.732 E390.52269
G1 X138.091 Y103.141 E390.56433
G1 X139.408 Y102.334 E390.60598
G1 X140.582 Y101.332 E390.64763
G1 X141.584 Y100.158 E390.68927
G1 X142.391 Y98.841 E390.73092
G1 X142.982 Y97.415 E390.77257
G1 X143.342 Y95.914 E390.81421
G1 X143.397 Y95.211 E390.83325
G1 X143.971 Y95.211 E390.84872
G1 X143.909 Y96.004 E390.87018
G1 X143.527 Y97.592 E390.91426
G1 X142.902 Y99.102 E390.95833
G1 X142.048 Y100.495 E391.00240
G1 X140.987 Y101.737 E391.04648
G1 X139.745 Y102.798 E391.09055
G1 X138.352 Y103.652 E391.13463
G1 X136.842 Y104.277 E391.17870
G1 X135.254 Y104.659 E391.22278
G1 X133.592 Y104.789 E391.26774
G1 X56.036 Y104.789 E393.35995
G1 X55.400 Y105.350 F7800.000
G1 F3000
G1 X55.400 Y103.650 E393.39498
G1 X133.636 Y103.650 E395.00745
G1 X135.076 Y103.537 E395.03722
G1 X136.491 Y103.197 E395.06722
G1 X137.836 Y102.640 E395.09722
G1 X139.077 Y101.879 E395.12722
G1 X140.184 Y100.934 E395.15722
G1 X141.129 Y99.827 E395.18722
G1 X141.890 Y98.586 E395.21722
G1 X142.447 Y97.241 E395.24722
G1 X142.787 Y95.826 E395.27722
G1 X142.879 Y94.650 E395.30153
G1 X144.578 Y94.650 E395.33654
G1 X144.464 Y96.092 E395.36634
G1 X144.062 Y97.766 E395.40183
G1 X143.403 Y99.357 E395.43733
G1 X142.503 Y100.825 E395.47282
G1 X141.385 Y102.135 E395.50831
G1 X140.075 Y103.253 E395.54380
G1 X138.607 Y104.153 E395.57929
G1 X137.016 Y104.812 E395.61479
G1 X135.342 Y105.214 E395.65028
G1 X133.614 Y105.350 E395.68599
G1 X55.475 Y105.350 E397.29647
G1 X55.650 Y104.917 F7800.000
G1 Z13.550 F7800.000
G1 X55.961 Y104.789 F7800.000
G1 F3600
G1 X55.961 Y104.211 E397.31208
G1 X133.658 Y104.211 E399.40808
G1 X135.164 Y104.092 E399.44884
G1 X136.665 Y103.732 E399.49049
G1 X138.091 Y103.141 E399.53213
G1 X139.408 Y102.334 E399.57378
G1 X140.582 Y101.332 E399.61542
G1 X141.584 Y100.158 E399.65707
G1 X142.391 Y98.841 E399.69872
G1 X142.982 Y97.415 E399.74036
G1 X143.342 Y95.914 E399.78201
G1 X143.397 Y95.211 E399.80104
G1 X143.971 Y95.211 E399.81652
G1 X143.909 Y96.004 E399.83798
G1 X143.527 Y97.592 E399.88205
G1 X142.902 Y99.102 E399.92613
G1 X142.048 Y100.495 E399.97020
G1 X140.987 Y101.737 E400.01428
G1 X139.745 Y102.798 E400.05835
G1 X138.352 Y103.652 E400.10242
G1 X136.842 Y104.277 E400.14650
G1 X135.254 Y104.659 E400.19057
G1 X133.592 Y104.789 E400.23554
G1 X56.036 Y104.789 E402.32774
G1 X55.400 Y105.350 F7800.000
G1 F3000
G1 X55.400 Y103.650 E402.36278
G1 X133.636 Y103.650 E403.97525
G1 X135.076 Y103.537 E404.00502
G1 X136.491 Y103.197 E404.03502
G1 X137.836 Y102.640 E404.06502
G1 X139.077 Y101.879 E404.09502
G1 X140.184 Y100.934 E404.12502
G1 X141.129 Y99.827 E404.15502
G1 X141.890 Y98.586 E404.18502
G1 X142.447 Y97.241 E404.21502
G1 X142.787 Y95.826 E404.24502
G1 X142.879 Y94.650 E404.26933
G1 X144.578 Y94.650 E404.30433
G1 X144.464 Y96.092 E404.33414
G1 X144.062 Y97.766 E404.36963
G1 X143.403 Y99.357 E404.40512
G1 X142.503 Y100.825 E404.44061
G1 X141.385 Y102.135 E404.47611
G1 X140.075 Y103.253 E404.51160
G1 X138.607 Y104.153 E404.54709
G1 X137.016 Y104.812 E404.58258
G1 X135.342 Y105.214 E404.61807
G1 X133.614 Y105.350 E404.65379
G1 X55.475 Y105.350 E406.26426
G1 X55.650 Y104.917 F7800.000
G1 Z13.850 F7800.000
G1 X55.961 Y104.789 F7800.000
G1 F3600
G1 X55.961 Y104.211 E406.27988
G1 X133.658 Y104.211 E408.37588
G1 X135.164 Y104.092 E408.41664
G1 X136.665 Y103.732 E408.45828
G1 X138.091 Y103.141 E408.49993
G1 X139.408 Y102.334 E408.54157
G1 X140.582 Y101.332 E408.58322
G1 X141.584 Y100.158 E408.62487
G1 X142.391 Y98.841 E408.66651
G1 X142.982 Y97.415 E408.70816
G1 X143.342 Y95.914 E408.74981
G1 X143.397 Y95.211 E408.76884
G1 X143.971 Y95.211 E408.78431
G1 X143.909 Y96.004 E408.80578
G1 X143.527 Y97.592 E408.84985
G1 X142.902 Y99.102 E408.89392
G1 X142.048 Y100.495 E408.93800
G1 X140.987 Y101.737 E408.98207
G1 X139.745 Y102.798 E409.02615
G1 X138.352 Y103.652 E409.07022
G1 X136.842 Y104.277 E409.11430
G1 X135.254 Y104.659 E409.15837
G1 X133.592 Y104.789 E409.20333
G1 X56.036 Y104.789 E411.29554
G1 X55.400 Y105.350 F7800.000
G1 F3000
G1 X55.400 Y103.650 E411.33058
G1 X133.636 Y103.650 E412.94304
G1 X135.076 Y103.537 E412.97282
G1 X136.491 Y103.197 E413.00282
G1 X137.836 Y102.640 E413.03282
G1 X139.077 Y101.879 E413.06282
G1 X140.184 Y100.934 E413.09282
G1 X141.129 Y99.827 E413.12281
G1 X141.890 Y98.586 E413.15281
G1 X142.447 Y97.241 E413.18281
G1 X142.787 Y95.826 E413.21281
G1 X142.879 Y94.650 E413.23713
G1 X144.578 Y94.650 E413.27213
G1 X144.464 Y96.092 E413.30194
G1 X144.062 Y97.766 E413.33743
G1 X143.403 Y99.357 E413.37292
G1 X142.503 Y100.825 E413.40841
G1 X141.385 Y102.135 E413.44390
G1 X140.075 Y103.253 E413.47940
G1 X138.607 Y104.153 E413.51489
G1 X137.016 Y104.812 E413.55038
G1 X135.342 Y105.214 E413.58587
G1 X133.614 Y105.350 E413.62159
G1 X55.475 Y105.350 E415.23206
G1 X55.650 Y104.917 F7800.000
G1 Z14.150 F7800.000
G1 X55.961 Y104.789 F7800.000
G1 F3600
G1 X55.961 Y104.211 E415.24767
G1 X133.658 Y104.211 E417.34367
G1 X135.164 Y104.092 E417.38443
G1 X136.665 Y103.732 E417.42608
G1 X138.091 Y103.141 E417.46772
G1 X139.408 Y102.334 E417.50937
G1 X140.582 Y101.332 E417.55102
G1 X141.584 Y100.158 E417.59266
G1 X142.391 Y98.841 E417.63431
G1 X142.982 Y97.415 E417.67596
G1 X143.342 Y95.914 E417.71760
G1 X143.397 Y95.211 E417.73664
G1 X143.971 Y95.211 E417.75211
G1 X143.909 Y96.004 E417.77357
G1 X143.527 Y97.592 E417.81765
G1 X142.902 Y99.102 E417.86172
G1 X142.048 Y100.495 E417.90580
G1 X140.987 Y101.737 E417.94987
G1 X139.745 Y102.798 E417.99394
G1 X138.352 Y103.652 E418.03802
G1 X136.842 Y104.277 E418.08209
G1 X135.254 Y104.659 E418.12617
G1 X133.592 Y104.789 E418.17113
G1 X56.036 Y104.789 E420.26334
G1 X55.400 Y105.350 F7800.000
G1 F3000
G1 X55.400 Y103.650 E420.29837
G1 X133.636 Y103.650 E421.91084
G1 X135.076 Y103.537 E421.94061
G1 X136.491 Y103.197 E421.97061
G1 X137.836 Y102.640 E422.00061
G1 X139.077 Y101.879 E422.03061
G1 X140.184 Y100.934 E422.06061
G1 X141.129 Y99.827 E422.09061
G1 X141.890 Y98.586 E422.12061
G1 X142.447 Y97.241 E422.15061
G1 X142.787 Y95.826 E422.18061
G1 X142.879 Y94.650 E422.20492
G1 X144.578 Y94.650 E422.23993
G1 X144.464 Y96.092 E422.26973
G1 X144.062 Y97.766 E422.30522
G1 X143.403 Y99.357 E422.34072
G1 X142.503 Y100.825 E422.37621
G1 X141.385 Y102.135 E422.41170
G1 X140.075 Y103.253 E422.44719
G1 X138.607 Y104.153 E422.48268
G1 X137.016 Y104.812 E422.51818
G1 X135.342 Y105.214 E422.55367
G1 X133.614 Y105.350 E422.58938
G1 X55.475 Y105.350 E424.19986
G1 X55.650 Y104.917 F7800.000
G1 Z14.450 F7800.000
G1 X55.961 Y104.789 F7800.000
G1 F3600
G1 X55.961 Y104.211 E424.21547
G1 X133.658 Y104.211 E426.31147
G1 X135.164 Y104.092 E426.35223
G1 X136.665 Y103.732 E426.39388
G1 X138.091 Y103.141 E426.43552
G1 X139.408 Y102.334 E426.47717
G1 X140.582 Y101.332 E426.51881
G1 X141.584 Y100.158 E426.56046
G1 X142.391 Y98.841 E426.60211
G1 X142.982 Y97.415 E426.64375
G1 X143.342 Y95.914 E426.68540
G1 X143.397 Y95.211 E426.70443
G1 X143.971 Y95.211 E426.71991
G1 X143.909 Y96.004 E426.74137
G1 X143.527 Y97.592 E426.78544
G1 X142.902 Y99.102 E426.82952
G1 X142.048 Y100.495 E426.87359
G1 X140.987 Y101.737 E426.91767
G1 X139.745 Y102.798 E426.96174
G1 X138.352 Y103.652 E427.00581
G1 X136.842 Y104.277 E427.04989
G1 X135.254 Y104.659 E427.09396
G1 X133.592 Y104.789 E427.13893
G1 X56.036 Y104.789 E429.23113
G1 X55.400 Y105.350 F7800.000
G1 F3000
G1 X55.400 Y103.650 E429.26617
G1 X133.636 Y103.650 E430.87864
G1 X135.076 Y103.537 E430.90841
G1 X136.491 Y103.197 E430.93841
G1 X137.836 Y102.640 E430.96841
G1 X139.077 Y101.879 E430.99841
G1 X140.184 Y100.934 E431.02841
G1 X141.129 Y99.827 E431.05841
G1 X141.890 Y98.586 E431.08841
G1 X142.447 Y97.241 E431.11841
G1 X142.787 Y95.826 E431.14841
G1 X142.879 Y94.650 E431.17272
G1 X144.578 Y94.650 E431.20772
G1 X144.464 Y96.092 E431.23753
G1 X144.062 Y97.766 E431.27302
G1 X143.403 Y99.357 E431.30851
G1 X142.503 Y100.825 E431.34400
G1 X141.385 Y102.135 E431.37950
G1 X140.075 Y103.253 E431.41499
G1 X138.607 Y104.153 E431.45048
G1 X137.016 Y104.812 E431.48597
G1 X135.342 Y105.214 E431.52146
G1 X133.614 Y105.350 E431.55718
G1 X55.475 Y105.350 E433.16765
G1 X55.650 Y104.917 F7800.000
G1 Z14.750 F7800.000
G1 X55.961 Y104.789 F7800.000
G1 F3600
G1 X55.961 Y104.211 E433.18327
G1 X133.658 Y104.211 E435.27927
G1 X135.164 Y104.092 E435.32003
G1 X136.665 Y103.732 E435.36167
G1 X138.091 Y103.141 E435.40332
G1 X139.408 Y102.334 E435.44496
G1 X140.582 Y101.332 E435.48661
G1 X141.584 Y100.158 E435.52826
G1 X142.391 Y98.841 E435.56990
G1 X142.982 Y97.415 E435.61155
G1 X143.342 Y95.914 E435.65320
G1 X143.397 Y95.211 E435.67223
G1 X143.971 Y95.211 E435.68770
G1 X143.909 Y96.004 E435.70917
G1 X143.527 Y97.592 E435.75324
G1 X142.902 Y99.102 E435.79731
G1 X142.048 Y100.495 E435.84139
G1 X140.987 Y101.737 E435.88546
G1 X139.745 Y102.798 E435.92954
G1 X138.352 Y103.652 E435.97361
G1 X136.842 Y104.277 E436.01769
G1 X135.254 Y104.659 E436.06176
G1 X133.592 Y104.789 E436.10672
G1 X56.036 Y104.789 E438.19893
G1 X55.400 Y105.350 F7800.000
G1 F3000
G1 X55.400 Y103.650 E438.23397
G1 X133.636 Y103.650 E439.84643
G1 X135.076 Y103.537 E439.87621
G1 X136.491 Y103.197 E439.90621
G1 X137.836 Y102.640 E439.93621
G1 X139.077 Y101.879 E439.96621
G1 X140.184 Y100.934 E439.99621
G1 X141.129 Y99.827 E440.02620
G1 X141.890 Y98.586 E440.05620
G1 X142.447 Y97.241 E440.08620
G1 X142.787 Y95.826 E440.11620
G1 X142.879 Y94.650 E440.14052
G1 X144.578 Y94.650 E440.17552
G1 X144.464 Y96.092 E440.20533
G1 X144.062 Y97.766 E440.24082
G1 X143.403 Y99.357 E440.27631
G1 X142.503 Y100.825 E440.31180
G1 X141.385 Y102.135 E440.34729
G1 X140.075 Y103.253 E440.38279
G1 X138.607 Y104.153 E440.41828
G1 X137.016 Y104.812 E440.45377
G1 X135.342 Y105.214 E440.48926
G1 X133.614 Y105.350 E440.52498
G1 X55.475 Y105.350 E442.13545
G1 X55.650 Y104.917 F7800.000
G1 Z15.050 F7800.000
G1 X55.961 Y104.789 F7800.000
G1 F3600
G1 X55.961 Y104.211 E442.15106
G1 X133.658 Y104.211 E444.24707
G1 X135.164 Y104.092 E444.28782
G1 X136.665 Y103.732 E444.32947
G1 X138.091 Y103.141 E444.37112
G1 X139.408 Y102.334 E444.41276
G1 X140.582 Y101.332 E444.45441
G1 X141.584 Y100.158 E444.49605
G1 X142.391 Y98.841 E444.53770
G1 X142.982 Y97.415 E444.57935
G1 X143.342 Y95.914 E444.62099
G1 X143.397 Y95.211 E444.64003
G1 X143.971 Y95.211 E444.65550
G1 X143.909 Y96.004 E444.67696
G1 X143.527 Y97.592 E444.72104
G1 X142.902 Y99.102 E444.76511
G1 X142.048 Y100.495 E444.80919
G1 X140.987 Y101.737 E444.85326
G1 X139.745 Y102.798 E444.89733
G1 X138.352 Y103.652 E444.94141
G1 X136.842 Y104.277 E444.98548
G1 X135.254 Y104.659 E445.02956
G1 X133.592 Y104.789 E445.07452
G1 X56.036 Y104.789 E447.16673
G1 X55.400 Y105.350 F7800.000
G1 F3000
G1 X55.400 Y103.650 E447.20176
G1 X133.636 Y103.650 E448.81423
G1 X135.076 Y103.537 E448.84400
G1 X136.491 Y103.197 E448.87400
G1 X137.836 Y102.640 E448.90400
G1 X139.077 Y101.879 E448.93400
G1 X140.184 Y100.934 E448.96400
G1 X141.129 Y99.827 E448.99400
G1 X141.890 Y98.586 E449.02400
G1 X142.447 Y97.241 E449.05400
G1 X142.787 Y95.826 E449.08400
G1 X142.879 Y94.650 E449.10831
G1 X144.578 Y94.650 E449.14332
G1 X144.464 Y96.092 E449.17312
G1 X144.062 Y97.766 E449.20861
G1 X143.403 Y99.357 E449.24411
G1 X142.503 Y100.825 E449.27960
G1 X141.385 Y102.135 E449.31509
G1 X140.075 Y103.253 E449.35058
G1 X138.607 Y104.153 E449.38607
G1 X137.016 Y104.812 E449.42157
G1 X135.342 Y105.214 E449.45706
G1 X133.614 Y105.350 E449.49277
G1 X55.475 Y105.350 E451.10325
G1 X55.650 Y104.917 F7800.000
G1 Z15.350 F7800.000
G1 X55.961 Y104.789 F7800.000
G1 F3600
G1 X55.961 Y104.211 E451.11886
G1 X133.658 Y104.211 E453.21486
G1 X135.164 Y104.092 E453.25562
G1 X136.665 Y103.732 E453.29727
G1 X138.091 Y103.141 E453.33891
G1 X139.408 Y102.334 E453.38056
G1 X140.582 Y101.332 E453.42220
G1 X141.584 Y100.158 E453.46385
G1 X142.391 Y98.841 E453.50550
G1 X142.982 Y97.415 E453.54714
G1 X143.342 Y95.914 E453.58879
G1 X143.397 Y95.211 E453.60782
G1 X143.971 Y95.211 E453.62330
G1 X143.909 Y96.004 E453.64476
G1 X143.527 Y97.592 E453.68883
G1 X142.902 Y99.102 E453.73291
G1 X142.048 Y100.495 E453.77698
G1 X140.987 Y101.737 E453.82106
G1 X139.745 Y102.798 E453.86513
G1 X138.352 Y103.652 E453.90920
G1 X136.842 Y104.277 E453.95328
G1 X135.254 Y104.659 E453.99735
G1 X133.592 Y104.789 E454.04232
G1 X56.036 Y104.789 E456.13452
G1 X55.400 Y105.350 F7800.000
G1 F3000
G1 X55.400 Y103.650 E456.16956
G1 X133.636 Y103.650 E457.78203
G1 X135.076 Y103.537 E457.81180
G1 X136.491 Y103.197 E457.84180
G1 X137.836 Y102.640 E457.87180
G1 X139.077 Y101.879 E457.90180
G1 X140.184 Y100.934 E457.93180
G1 X141.129 Y99.827 E457.96180
G1 X141.890 Y98.586 E457.99180
G1 X142.447 Y97.241 E458.02180
G1 X142.787 Y95.826 E458.05180
G1 X142.879 Y94.650 E458.07611
G1 X144.578 Y94.650 E458.11111
G1 X144.464 Y96.092 E458.14092
G1 X144.062 Y97.766 E458.17641
G1 X143.403 Y99.357 E458.21190
G1 X142.503 Y100.825 E458.24740
G1 X141.385 Y102.135 E458.28289
G1 X140.075 Y103.253 E458.31838
G1 X138.607 Y104.153 E458.35387
G1 X137.016 Y104.812 E458.38936
G1 X135.342 Y105.214 E458.42485
G1 X133.614 Y105.350 E458.46057
G1 X55.475 Y105.350 E460.07104
G1 X55.650 Y104.917 F7800.000
G1 Z15.650 F7800.000
G1 X55.961 Y104.789 F7800.000
G1 F3600
G1 X55.961 Y104.211 E460.08666
G1 X133.658 Y104.211 E462.18266
G1 X135.164 Y104.092 E462.22342
G1 X136.665 Y103.732 E462.26506
G1 X138.091 Y103.141 E462.30671
G1 X139.408 Y102.334 E462.34835
G1 X140.582 Y101.332 E462.39000
G1 X141.584 Y100.158 E462.43165
G1 X142.391 Y98.841 E462.47329
G1 X142.982 Y97.415 E462.51494
G1 X143.342 Y95.914 E462.55659
G1 X143.397 Y95.211 E462.57562
G1 X143.971 Y95.211 E462.59109
G1 X143.909 Y96.004 E462.61256
G1 X143.527 Y97.592 E462.65663
G1 X142.902 Y99.102 E462.70070
G1 X142.048 Y100.495 E462.74478
G1 X140.987 Y101.737 E462.78885
G1 X139.745 Y102.798 E462.83293
G1 X138.352 Y103.652 E462.87700
G1 X136.842 Y104.277 E462.92108
G1 X135.254 Y104.659 E462.96515
G1 X133.592 Y104.789 E463.01011
G1 X56.036 Y104.789 E465.10232
G1 X55.400 Y105.350 F7800.000
G1 F3000
G1 X55.400 Y103.650 E465.13736
G1 X133.636 Y103.650 E466.74982
G1 X135.076 Y103.537 E466.77960
G1 X136.491 Y103.197 E466.80960
G1 X137.836 Y102.640 E466.83960
G1 X139.077 Y101.879 E466.86960
G1 X140.184 Y100.934 E466.89960
G1 X141.129 Y99.827 E466.92960
G1 X141.890 Y98.586 E466.95959
G1 X142.447 Y97.241 E466.98959
G1 X142.787 Y95.826 E467.01959
G1 X142.879 Y94.650 E467.04391
G1 X144.578 Y94.650 E467.07891
G1 X144.464 Y96.092 E467.10872
G1 X144.062 Y97.766 E467.14421
G1 X143.403 Y99.357 E467.17970
G1 X142.503 Y100.825 E467.21519
G1 X141.385 Y102.135 E467.25068
G1 X140.075 Y103.253 E467.28618
G1 X138.607 Y104.153 E467.32167
G1 X137.016 Y104.812 E467.35716
G1 X135.342 Y105.214 E467.39265
G1 X133.614 Y105.350 E467.42837
G1 X55.475 Y105.350 E469.03884
G1 X55.650 Y104.917 F7800.000
G1 Z15.950 F7800.000
G1 X55.961 Y104.789 F7800.000
G1 F3600
G1 X55.961 Y104.211 E469.05445
G1 X133.658 Y104.211 E471.15046
G1 X135.164 Y104.092 E471.19121
G1 X136.665 Y103.732 E471.23286
G1 X138.091 Y103.141 E471.27451
G1 X139.408 Y102.334 E471.31615
G1 X140.582 Y101.332 E471.35780
G1 X141.584 Y100.158 E471.39944
G1 X142.391 Y98.841 E471.44109
G1 X142.982 Y97.415 E471.48274
G1 X143.342 Y95.914 E471.52438
G1 X143.397 Y95.211 E471.54342
G1 X143.971 Y95.211 E471.55889
G1 X143.909 Y96.004 E471.58035
G1 X143.527 Y97.592 E471.62443
G1 X142.902 Y99.102 E471.66850
G1 X142.048 Y100.495 E471.71258
G1 X140.987 Y101.737 E471.75665
G1 X139.745 Y102.798 E471.80072
G1 X138.352 Y103.652 E471.84480
G1 X136.842 Y104.277 E471.88887
G1 X135.254 Y104.659 E471.93295
G1 X133.592 Y104.789 E471.97791
G1 X56.036 Y104.789 E474.07012
G1 X55.400 Y105.350 F7800.000
G1 F3000
G1 X55.400 Y103.650 E474.10515
G1 X133.636 Y103.650 E475.71762
G1 X135.076 Y103.537 E475.74740
G1 X136.491 Y103.197 E475.77739
G1 X137.836 Y102.640 E475.80739
G1 X139.077 Y101.879 E475.83739
G1 X140.184 Y100.934 E475.86739
G1 X141.129 Y99.827 E475.89739
G1 X141.890 Y98.586 E475.92739
G1 X142.447 Y97.241 E475.95739
G1 X142.787 Y95.826 E475.98739
G1 X142.879 Y94.650 E476.01170
G1 X144.578 Y94.650 E476.04671
G1 X144.464 Y96.092 E476.07651
G1 X144.062 Y97.766 E476.11200
G1 X143.403 Y99.357 E476.14750
G1 X142.503 Y100.825 E476.18299
G1 X141.385 Y102.135 E476.21848
G1 X140.075 Y103.253 E476.25397
G1 X138.607 Y104.153 E476.28946
G1 X137.016 Y104.812 E476.32496
G1 X135.342 Y105.214 E476.36045
G1 X133.614 Y105.350 E476.39616
G1 X55.475 Y105.350 E478.00664
G1 X55.650 Y104.917 F7800.000
G1 Z16.250 F7800.000
G1 X55.961 Y104.789 F7800.000
G1 F3600
G1 X55.961 Y104.211 E478.02225
G1 X133.658 Y104.211 E480.11825
G1 X135.164 Y104.092 E480.15901
G1 X136.665 Y103.732 E480.20066
G1 X138.019 Y103.171 E480.24020
G1 X139.405 Y102.336 E480.28384
G1 X140.582 Y101.332 E480.32557
G1 X141.584 Y100.158 E480.36722
G1 X142.391 Y98.841 E480.40886
G1 X142.982 Y97.415 E480.45051
G1 X143.342 Y95.914 E480.49216
G1 X143.397 Y95.211 E480.51119
G1 X143.971 Y95.211 E480.52666
G1 X143.909 Y96.004 E480.54813
G1 X143.527 Y97.592 E480.59220
G1 X142.902 Y99.102 E480.63627
G1 X142.048 Y100.495 E480.68035
G1 X140.987 Y101.737 E480.72442
G1 X139.745 Y102.798 E480.76850
G1 X138.352 Y103.652 E480.81257
G1 X136.842 Y104.277 E480.85665
G1 X135.254 Y104.659 E480.90072
G1 X133.592 Y104.789 E480.94568
G1 X56.036 Y104.789 E483.03789
G1 X55.400 Y105.350 F7800.000
G1 F3000
G1 X55.400 Y103.650 E483.07293
G1 X133.636 Y103.650 E484.68539
G1 X135.076 Y103.537 E484.71517
G1 X136.491 Y103.197 E484.74517
G1 X137.766 Y102.669 E484.77360
G1 X139.076 Y101.880 E484.80513
G1 X140.184 Y100.934 E484.83515
G1 X141.129 Y99.827 E484.86515
G1 X141.890 Y98.586 E484.89515
G1 X142.447 Y97.241 E484.92515
G1 X142.787 Y95.826 E484.95515
G1 X142.879 Y94.650 E484.97946
G1 X144.578 Y94.650 E485.01446
G1 X144.464 Y96.092 E485.04427
G1 X144.062 Y97.766 E485.07976
G1 X143.403 Y99.357 E485.11525
G1 X142.503 Y100.825 E485.15074
G1 X141.385 Y102.135 E485.18624
G1 X140.075 Y103.253 E485.22173
G1 X138.607 Y104.153 E485.25722
G1 X137.016 Y104.812 E485.29271
G1 X135.342 Y105.214 E485.32820
G1 X133.614 Y105.350 E485.36392
G1 X55.475 Y105.350 E486.97439
G1 X55.650 Y104.917 F7800.000
G1 Z16.550 F7800.000
G1 X55.961 Y104.789 F7800.000
G1 F3600
G1 X55.961 Y104.211 E486.99001
G1 X133.658 Y104.211 E489.08601
G1 X135.164 Y104.092 E489.12676
G1 X136.665 Y103.732 E489.16841
G1 X138.091 Y103.141 E489.21006
G1 X139.408 Y102.334 E489.25170
G1 X140.582 Y101.332 E489.29335
G1 X141.550 Y100.197 E489.33359
G1 X142.390 Y98.844 E489.37657
G1 X142.982 Y97.415 E489.41827
G1 X143.342 Y95.914 E489.45992
G1 X143.397 Y95.211 E489.47895
G1 X143.971 Y95.211 E489.49443
G1 X143.909 Y96.004 E489.51589
G1 X143.527 Y97.592 E489.55996
G1 X142.902 Y99.102 E489.60404
G1 X142.048 Y100.495 E489.64811
G1 X140.987 Y101.737 E489.69219
G1 X139.745 Y102.798 E489.73626
G1 X138.352 Y103.652 E489.78033
G1 X136.842 Y104.277 E489.82441
G1 X135.254 Y104.659 E489.86848
G1 X133.592 Y104.789 E489.91345
G1 X56.036 Y104.789 E492.00565
G1 X55.400 Y105.350 F7800.000
G1 F3000
G1 X55.400 Y103.650 E492.04069
G1 X133.636 Y103.650 E493.65315
G1 X135.076 Y103.537 E493.68293
G1 X136.491 Y103.197 E493.71293
G1 X137.836 Y102.640 E493.74293
G1 X139.077 Y101.879 E493.77293
G1 X140.184 Y100.934 E493.80293
G1 X141.096 Y99.866 E493.83189
G1 X141.890 Y98.587 E493.86290
G1 X142.447 Y97.241 E493.89291
G1 X142.787 Y95.826 E493.92291
G1 X142.879 Y94.650 E493.94723
G1 X144.578 Y94.650 E493.98223
G1 X144.464 Y96.092 E494.01204
G1 X144.062 Y97.766 E494.04753
G1 X143.403 Y99.357 E494.08302
G1 X142.503 Y100.825 E494.11851
G1 X141.385 Y102.135 E494.15400
G1 X140.075 Y103.253 E494.18950
G1 X138.607 Y104.153 E494.22499
G1 X137.016 Y104.812 E494.26048
G1 X135.342 Y105.214 E494.29597
G1 X133.614 Y105.350 E494.33169
G1 X55.475 Y105.350 E495.94216
G1 X55.650 Y104.917 F7800.000
G1 Z16.850 F7800.000
G1 X55.961 Y104.789 F7800.000
G1 F3600
G1 X55.961 Y104.211 E495.95777
G1 X133.658 Y104.211 E498.05378
G1 X135.164 Y104.092 E498.09453
G1 X136.665 Y103.732 E498.13618
G1 X138.091 Y103.141 E498.17783
G1 X139.408 Y102.334 E498.21947
G1 X140.582 Y101.332 E498.26112
G1 X141.567 Y100.178 E498.30206
G1 X142.390 Y98.843 E498.34437
G1 X142.982 Y97.415 E498.38605
G1 X143.342 Y95.914 E498.42769
G1 X143.397 Y95.211 E498.44673
G1 X143.971 Y95.211 E498.46220
G1 X143.909 Y96.004 E498.48366
G1 X143.527 Y97.592 E498.52774
G1 X142.902 Y99.102 E498.57181
G1 X142.048 Y100.495 E498.61589
G1 X140.987 Y101.737 E498.65996
G1 X139.745 Y102.798 E498.70404
G1 X138.352 Y103.652 E498.74811
G1 X136.842 Y104.277 E498.79218
G1 X135.254 Y104.659 E498.83626
G1 X133.592 Y104.789 E498.88122
G1 X56.036 Y104.789 E500.97343
G1 X55.400 Y105.350 F7800.000
G1 F3000
G1 X55.400 Y103.650 E501.00847
G1 X133.636 Y103.650 E502.62093
G1 X135.076 Y103.537 E502.65071
G1 X136.491 Y103.197 E502.68071
G1 X137.836 Y102.640 E502.71071
G1 X139.077 Y101.879 E502.74071
G1 X140.184 Y100.934 E502.77070
G1 X141.113 Y99.846 E502.80018
G1 X141.890 Y98.586 E502.83069
G1 X142.447 Y97.241 E502.86070
G1 X142.787 Y95.826 E502.89070
G1 X142.879 Y94.650 E502.91501
G1 X144.578 Y94.650 E502.95001
G1 X144.464 Y96.092 E502.97982
G1 X144.062 Y97.766 E503.01531
G1 X143.403 Y99.357 E503.05080
G1 X142.503 Y100.825 E503.08629
G1 X141.385 Y102.135 E503.12179
G1 X140.075 Y103.253 E503.15728
G1 X138.607 Y104.153 E503.19277
G1 X137.016 Y104.812 E503.22826
G1 X135.342 Y105.214 E503.26375
G1 X133.614 Y105.350 E503.29947
G1 X55.475 Y105.350 E504.90994
G1 X55.650 Y104.917 F7800.000
G1 Z17.150 F7800.000
G1 X55.961 Y104.789 F7800.000
G1 F3600
G1 X55.961 Y104.211 E504.92556
G1 X133.658 Y104.211 E507.02156
G1 X135.164 Y104.092 E507.06232
G1 X136.665 Y103.732 E507.10396
G1 X138.091 Y103.141 E507.14561
G1 X139.408 Y102.334 E507.18725
G1 X140.582 Y101.332 E507.22890
G1 X141.584 Y100.158 E507.27055
G1 X142.391 Y98.841 E507.31219
G1 X142.982 Y97.415 E507.35384
G1 X143.342 Y95.914 E507.39549
G1 X143.397 Y95.211 E507.41452
G1 X143.971 Y95.211 E507.42999
G1 X143.909 Y96.004 E507.45146
G1 X143.527 Y97.592 E507.49553
G1 X142.902 Y99.102 E507.53960
G1 X142.048 Y100.495 E507.58368
G1 X140.987 Y101.737 E507.62775
G1 X139.745 Y102.798 E507.67183
G1 X138.352 Y103.652 E507.71590
G1 X136.842 Y104.277 E507.75998
G1 X135.254 Y104.659 E507.80405
G1 X133.592 Y104.789 E507.84901
G1 X56.036 Y104.789 E509.94122
G1 X55.400 Y105.350 F7800.000
G1 F3000
G1 X55.400 Y103.650 E509.97626
G1 X133.636 Y103.650 E511.58872
G1 X135.076 Y103.537 E511.61850
G1 X136.491 Y103.197 E511.64850
G1 X137.836 Y102.640 E511.67850
G1 X139.077 Y101.879 E511.70850
G1 X140.184 Y100.934 E511.73850
G1 X141.129 Y99.827 E511.76849
G1 X141.890 Y98.586 E511.79849
G1 X142.447 Y97.241 E511.82849
G1 X142.787 Y95.826 E511.85849
G1 X142.879 Y94.650 E511.88281
G1 X144.578 Y94.650 E511.91781
G1 X144.464 Y96.092 E511.94762
G1 X144.062 Y97.766 E511.98311
G1 X143.403 Y99.357 E512.01860
G1 X142.503 Y100.825 E512.05409
G1 X141.385 Y102.135 E512.08958
G1 X140.075 Y103.253 E512.12508
G1 X138.607 Y104.153 E512.16057
G1 X137.016 Y104.812 E512.19606
G1 X135.342 Y105.214 E512.23155
G1 X133.614 Y105.350 E512.26727
G1 X55.475 Y105.350 E513.87774
G1 X55.650 Y104.917 F7800.000
G1 E511.87774 F2400.00000
G92 E0
M107
; Filament-specific end gcode 
;END gcode for filament

M104 S0 ; turn off temperature
G28 X0  ; home X axis
M84     ; disable motors

M140 S0 ; set bed temperature
; filament used = 518.3mm (3.7cm3)
; total filament cost = 0.0

; avoid_crossing_perimeters = 0
; bed_shape = 0x0,200x0,200x200,0x200
; bed_temperature = 0
; before_layer_gcode = 
; between_objects_gcode = 
; bridge_acceleration = 0
; bridge_fan_speed = 100
; brim_connections_width = 0
; brim_width = 0
; complete_objects = 0
; cooling = 1
; default_acceleration = 0
; disable_fan_first_layers = 3
; duplicate_distance = 6
; end_filament_gcode = "; Filament-specific end gcode \n;END gcode for filament\n"
; end_gcode = M104 S0 ; turn off temperature\nG28 X0  ; home X axis\nM84     ; disable motors\n
; extruder_clearance_height = 20
; extruder_clearance_radius = 20
; extruder_offset = 0x0
; extrusion_axis = E
; extrusion_multiplier = 1
; fan_always_on = 0
; fan_below_layer_time = 60
; filament_colour = #FFFFFF
; filament_cost = 0
; filament_density = 0
; filament_diameter = 3
; filament_max_volumetric_speed = 0
; filament_notes = ""
; first_layer_acceleration = 0
; first_layer_bed_temperature = 0
; first_layer_extrusion_width = 0
; first_layer_speed = 30
; first_layer_temperature = 200
; gcode_arcs = 0
; gcode_comments = 0
; gcode_flavor = reprap
; has_heatbed = 1
; infill_acceleration = 0
; infill_first = 0
; interior_brim_width = 0
; layer_gcode = 
; max_fan_speed = 100
; max_layer_height = 0.3
; max_print_speed = 80
; max_volumetric_speed = 0
; min_fan_speed = 35
; min_layer_height = 0.15
; min_print_speed = 10
; min_skirt_length = 0
; notes = 
; nozzle_diameter = 0.5
; only_retract_when_crossing_perimeters = 0
; ooze_prevention = 0
; output_filename_format = [input_filename_base].gcode
